!!!!SEGMENT: pl-cz--iii-753--001-007_zebrowski-marcin-jozef--vesperae-in-d-in-convertendo.krn
!!!cenid: 17xx:2378
!!!COM: Żebrowski, Marcin Józef
!!!COM-rismID: pe30020322
!!!CDT: 1702-1770/06/29
!!!CNT: Polish
!!!OPR: Vesperae in D
!!!OTL: In convertendo
!!!OMV: 007
!!!PDT:
!!!AGN:
!!!SMS-siglum: PL-CZ
!!!SMS-shelfmark: III-753
!!!SMS-shelfwork: 001-007 M
!!!SMS-variant:
!!!SMS-altvar:
!!!NIFC-rismSourceID: 300033505
!!!NIFC-islandoraID: pl-cz:25492
!!!URL-pdf-islandora: https://repozytorium.nifc.pl/islandora/object/pl-cz%3A25492/datastream/PDF/view
!!!URL-scan: https://polish.musicsources.pl/pl/lokalizacje/galeria/rekopisy/1484 @EN{Scan on Polish Music Herritage in Open Access Website} @PL{Skany w portalu Dziedzictwo Muzyki Polskiej w otwartym dostępie}
!!!ONB-nifc: UWAGA: części Nieszporów: 1. Dixit Dominus, 2. Confitebor, 3. Beatus vir, 4. Laudate pueri, 5. Laudate Dominum, 6. Credidi, 7. In convertendo, 8. Domine probasti me, 9. Laetatus sum, 10. Nisi Dominus, 11. Lauda Jerusalem, 12. Magnificat, 13. Quia respexit, 14. Deposuit potentes, 15. Gloria patri
!!!AIN: 1 alto 1 bass 2 clrno 1 fagot 1 organ 1 soprn 1 tenor 2 violn
!!!key: d
**kern	**fba	**dynam	**kern	**dynam	**kern	**kern	**kern	**text	**kern	**kern	**text	**kern	**text	**kern	**kern
*part10	*part10	*part10	*part9	*part9	*part8	*part7	*part6	*part6	*part5	*part4	*part4	*part3	*part3	*part2	*part1
*staff10	*	*	*staff9	*	*staff8	*staff7	*staff6	*staff6	*staff5	*staff4	*staff4	*staff3	*staff3	*staff2	*staff1
*Iorgan	*	*	*Ifagot	*	*Ivioln	*Ivioln	*Ibass	*	*Itenor	*Ialto	*	*Isoprn	*	*Iclrno	*Iclrno
*I"Organo.	*	*	*I"Baſsone.	*	*I"Violino Secondo.	*I"Violino Primo.	*I"Baſso.	*	*I"Tenore.	*I"Alto.	*	*I"Canto.	*	*I"Clarino Secondo ex D	*I"Clarino Primo ex D
*I'org	*	*	*I'fag	*	*I'vl II	*I'vl I	*I'B	*	*I'T	*I'A	*	*I'S	*	*I'clno in D	*I'clno in D
*ICklav	*	*	*ICww	*	*ICstr	*ICstr	*ICvox	*	*ICvox	*ICvox	*	*ICvox	*	*ICbras	*ICbras
*IGcont	*	*	*IGcont	*	*	*	*	*	*	*	*	*	*	*	*
*clefF4	*	*	*clefF4	*	*clefG2	*clefG2	*clefF4	*	*clefC4	*clefC3	*	*clefC1	*	*clefG2	*clefG2
*	*	*	*	*	*	*	*	*	*	*	*	*	*	*ITrd-1c-2	*ITrd-1c-2
*k[b-]	*	*	*k[b-]	*	*k[b-]	*k[b-]	*k[b-]	*	*k[b-]	*k[b-]	*	*k[b-]	*	*k[b-]	*k[b-]
*d:	*	*	*d:	*	*d:	*d:	*d:	*	*d:	*d:	*	*d:	*	*d:	*d:
*M3/4	*	*	*M3/4	*	*M3/4	*M3/4	*M3/4	*	*M3/4	*M3/4	*	*M3/4	*	*M3/4	*M3/4
=1	=1	=1	=1	=1	=1	=1	=1	=1	=1	=1	=1	=1	=1	=1	=1
!	!	!	!	!	!	!	!LO:TX:a:t=13.	!	!LO:TX:a:t=In convertendo tacet.	!LO:TX:a:t=13.	!	!LO:TX:a:t=5.	!	!	!
!LO:TX:b:i:rj:t=In convertendo	!	!	!LO:TX:b:i:rj:t=In convertendo	!	!LO:TX:b:i:rj:t=In convertendo	!LO:TX:b:i:rj:t=In convertendo	!LO:TX:b:i:rj:t=In convertendo.	!	!	!LO:TX:b:i:rj:t=In convertendo	!	!LO:TX:b:i:rj:t=In convertendo	!	!	!
8r	.	.	8r	.	8r	8r	0.r	.	2.ryy	0.r	.	0.r	.	2.ryy	2.ryy
!LO:TX:b:rj:t=Solo	!	!	!LO:TX:b:i:t=Solo uniſs.	!	!	!	!	!	!	!	!	!	!	!	!
!LO:TX:a:rj:t=Allo	!	!	!LO:TX:a:t=Allo	!	!LO:TX:b:t=Allo	!LO:TX:b:t=Allo poco.	!	!	!	!	!	!	!	!	!
!LO:TX:b:i:t=unis.	!	!	!	!	!	!LO:TX:t=P:problem:mixed beam	!	!	!	!	!	!	!	!	!
8A|\L	.	.	8A|\L	.	8a\L	8a/L	.	.	.	.	.	.	.	.	.
!	!	!	!	!	!LO:TX:t=P:problem:mixed beam	!	!	!	!	!	!	!	!	!	!
8D|\	.	.	8D|\	.	8d/	8d/	.	.	.	.	.	.	.	.	.
8d|\J	.	.	8d|\J	.	8dd\J	8dd\J	.	.	.	.	.	.	.	.	.
.	.	.	.	.	.	8qqee/	.	.	.	.	.	.	.	.	.
8d\L	.	.	8d\L	.	8dd\L	8dd\L	.	.	.	.	.	.	.	.	.
16c\L	.	.	16c\L	.	16cc\L	16cc\L	.	.	.	.	.	.	.	.	.
16Bn\JJ	.	.	16Bn\JJ	.	16bn\JJ	16bn\JJ	.	.	.	.	.	.	.	.	.
=2	=2	=2	=2	=2	=2	=2	=2	=2	=2	=2	=2	=2	=2	=2	=2
!	!	!	!	!	!LO:TX:t=P:problem:mixed beam	!LO:TX:t=P:problem:mixed beam	!	!	!	!	!	!	!	!	!
8c|\L	.	.	8c|\L	.	8cc\L	8cc\L	.	.	2.ryy	.	.	.	.	2.ryy	2.ryy
8G|\	.	.	8G|\	.	8g\	8g/J	.	.	.	.	.	.	.	.	.
8C|\	.	.	8C|\	.	8c/	8c/L	.	.	.	.	.	.	.	.	.
!	!	!	!	!	!	!LO:TX:t=P:problem:mixed beam	!	!	!	!	!	!	!	!	!
8c|\J	.	.	8c|\J	.	8cc\J	8cc\J	.	.	.	.	.	.	.	.	.
8c\L	.	.	8c\L	.	8cc\L	8cc\L	.	.	.	.	.	.	.	.	.
16B-X\L	.	.	16B-X\L	.	16b-X\L	16b-X\L	.	.	.	.	.	.	.	.	.
16A\JJ	.	.	16A\JJ	.	16a\JJ	16a\JJ	.	.	.	.	.	.	.	.	.
=3	=3	=3	=3	=3	=3	=3	=3	=3	=3	=3	=3	=3	=3	=3	=3
8B-|\L	.	.	8B-|\L	.	8b-/L	8b-/L	.	.	2.ryy	.	.	.	.	2.ryy	2.ryy
8F|\	.	.	8F|\	.	8f/	8f/	.	.	.	.	.	.	.	.	.
8BB-|\	.	.	8BB-|\	.	8B-/	8B-/	.	.	.	.	.	.	.	.	.
8B-|\J	.	.	8B-|\J	.	8b-/J	8b-/J	.	.	.	.	.	.	.	.	.
.	.	.	.	.	.	8qqcc/	.	.	.	.	.	.	.	.	.
8B-\L	.	.	8B-\L	.	8b-/L	8b-/L	.	.	.	.	.	.	.	.	.
16A\L	.	.	16A\L	.	16a/L	16a/L	.	.	.	.	.	.	.	.	.
16G\JJ	.	.	16G\JJ	.	16g/JJ	16g/JJ	.	.	.	.	.	.	.	.	.
=4	=4	=4	=4	=4	=4	=4	=4	=4	=4	=4	=4	=4	=4	=4	=4
8.A\L	.	.	8.A\L	.	8.a/L	8.a/L	.	.	2.ryy	.	.	.	.	2.ryy	2.ryy
16E\Jk	.	.	16E\Jk	.	16e/Jk	16e/Jk	.	.	.	.	.	.	.	.	.
8.F\L	.	.	8.F\L	.	8.f/L	8.f/L	.	.	.	.	.	.	.	.	.
16C#X\Jk	.	.	16C#X\Jk	.	16c#X/Jk	16c#X/Jk	.	.	.	.	.	.	.	.	.
8.D/L	.	.	8.D/L	.	8.d/L	8.d/L	.	.	.	.	.	.	.	.	.
16AA/Jk	.	.	16AA/Jk	.	16A/Jk	16A/Jk	.	.	.	.	.	.	.	.	.
=5	=5	=5	=5	=5	=5	=5	=5	=5	=5	=5	=5	=5	=5	=5	=5
!LO:TX:t=P:problem:mixed beam	!	!	!LO:TX:t=P:problem:mixed beam	!	!	!	!	!	!	!	!	!	!	!	!
8.BB-/L	.	.	8.BB-/L	.	8.B-/L	8.B-/L	0.r	.	2.ryy	0.r	.	2.r	.	2.ryy	2.ryy
16G#X\Jk	.	.	16G#X\Jk	.	16g#X/Jk	16g#X/Jk	.	.	.	.	.	.	.	.	.
4A\	.	.	4A\	.	4a|/	4a|/	.	.	.	.	.	.	.	.	.
4AA/	.	.	4AA/	.	4A/	4A/	.	.	.	.	.	.	.	.	.
=6	=6	=6	=6	=6	=6	=6	=6	=6	=6	=6	=6	=6	=6	=6	=6
!	!	!LO:DY:b:t=pia&colon;	!	!LO:DY:b:t=piano	!	!	!	!	!	!	!	!	!	!	!
4D\	.	p	4D\	p	4d/	4d/	.	.	2.ryy	.	.	8r	.	2.ryy	2.ryy
!	!	!	!	!	!	!	!	!	!	!	!	!LO:TX:a:t=Solo.	!	!	!
.	.	.	.	.	.	.	.	.	.	.	.	8a\	In	.	.
!	!	!	!LO:TX:a:t=6	!	!	!	!	!	!	!	!	!	!	!	!
4F\	6	.	4F\	.	4r	4r	.	.	.	.	.	8d/	con-	.	.
.	.	.	.	.	.	.	.	.	.	.	.	8dd\	-ver-	.	.
4D\	.	.	4D\	.	4r	4r	.	.	.	.	.	8dd\	-ten-	.	.
.	.	.	.	.	.	.	.	.	.	.	.	8dd\	-do	.	.
=7	=7	=7	=7	=7	=7	=7	=7	=7	=7	=7	=7	=7	=7	=7	=7
!	!	!	!	!	!LO:TX:a:t=6.	!LO:TX:a:t=6.	!	!	!	!	!	!	!	!	!
8r	7	.	8r	.	0.r	0.r	.	.	2.ryy	.	.	8.dd\	Do-	2.ryy	2.ryy
8E\L	.	.	8E\L	.	.	.	.	.	.	.	.	.	.	.	.
.	.	.	.	.	.	.	.	.	.	.	.	16cc#X\	-mi-	.	.
!LO:TX:t=P:problem:mixed beam	!	!	!LO:TX:t=P:problem:mixed beam	!	!	!	!	!	!	!	!	!	!	!	!
8AA/	#	.	8AA/	.	.	.	.	.	.	.	.	8cc#\	-nus	.	.
8A\	.	.	8A\	.	.	.	.	.	.	.	.	8cc#\	ca-	.	.
8G\	4\	.	8G\	.	.	.	.	.	.	.	.	8cc#\	-pti-	.	.
8F\J	6	.	8F\J	.	.	.	.	.	.	.	.	8dd\	-vi-	.	.
!LO:LB;g=original	!	!	!	!	!	!	!	!	!	!	!	!	!	!	!
=8	=8	=8	=8	=8	=8	=8	=8	=8	=8	=8	=8	=8	=8	=8	=8
8E\L	6\	.	8E\L	.	.	.	.	.	2.ryy	.	.	(4.ee\	-ta-	2.ryy	2.ryy
8D\J	.	.	8D\J	.	.	.	.	.	.	.	.	.	.	.	.
2C#X/	6 5	.	2C#X/	.	.	.	.	.	.	.	.	.	.	.	.
.	.	.	.	.	.	.	.	.	.	.	.	8b-\)	.	.	.
.	.	.	.	.	.	.	.	.	.	.	.	8a\L	-tem	.	.
.	.	.	.	.	.	.	.	.	.	.	.	8g\J	.	.	.
=9	=9	=9	=9	=9	=9	=9	=9	=9	=9	=9	=9	=9	=9	=9	=9
4.D\	9 4	.	4.D\	.	.	.	0.r	.	2.ryy	0.r	.	8g/L	Si-	2.ryy	2.ryy
.	.	.	.	.	.	.	.	.	.	.	.	8e/J	.	.	.
.	8 3	.	.	.	.	.	.	.	.	.	.	8qqe/	.	.	.
.	.	.	.	.	.	.	.	.	.	.	.	2f/	-on	.	.
8A|\L	.	.	8A|\L	.	.	.	.	.	.	.	.	.	.	.	.
8F|\	.	.	8F|\	.	.	.	.	.	.	.	.	.	.	.	.
8D|\J	.	.	8D|\J	.	.	.	.	.	.	.	.	.	.	.	.
!	!	!	!LO:LB:g=original	!	!	!	!	!	!	!	!	!	!	!	!
=10	=10	=10	=10	=10	=10	=10	=10	=10	=10	=10	=10	=10	=10	=10	=10
*2\right	*	*	*2\right	*	*	*	*	*	*	*	*	*	*	*	*
2E\	n6	.	2E\	.	.	.	.	.	2.ryy	.	.	4r	.	2.ryy	2.ryy
.	.	.	.	.	.	.	.	.	.	.	.	4ccn\	fa-	.	.
4BBn/	6	.	4BBn/	.	.	.	.	.	.	.	.	4dd\	-cti	.	.
=11	=11	=11	=11	=11	=11	=11	=11	=11	=11	=11	=11	=11	=11	=11	=11
8C\L	.	.	8C/L	.	1.r	1.r	.	.	2.ryy	.	.	4.ee\	su-	2.ryy	2.ryy
8D\J	.	.	8D/J	.	.	.	.	.	.	.	.	.	.	.	.
2E\	6	.	2E\	.	.	.	.	.	.	.	.	.	.	.	.
.	.	.	.	.	.	.	.	.	.	.	.	8bn\	-mus	.	.
.	.	.	.	.	.	.	.	.	.	.	.	8cc\	si-	.	.
.	.	.	.	.	.	.	.	.	.	.	.	8g/	-cut	.	.
=12	=12	=12	=12	=12	=12	=12	=12	=12	=12	=12	=12	=12	=12	=12	=12
8F\L	6	.	8F\L	.	.	.	.	.	2.ryy	.	.	8a\	con-	2.ryy	2.ryy
8D\J	.	.	8D\J	.	.	.	.	.	.	.	.	(16ff\LL	-so-	.	.
.	.	.	.	.	.	.	.	.	.	.	.	16dd\JJ)	.	.	.
4G\	4	.	4G\	.	.	.	.	.	.	.	.	4cc\	-la-	.	.
4GG/	n	.	4GG/	.	.	.	.	.	.	.	.	4bnt\	.	.	.
!	!	!	!	!	!	!	!	!	!	!	!	!LO:LB:g=original	!	!	!
=13	=13	=13	=13	=13	=13	=13	=13	=13	=13	=13	=13	=13	=13	=13	=13
*	*	*	*	*	*	*	*	*	*	*	*	*2\right	*	*	*
!LO:TX:b:i:t=Tutti	!	!	!LO:TX:b:i:t=Tutti	!	!	!	!	!	!	!	!	!	!	!	!
4C/	.	.	4C/	.	4r	16r	2.r	.	2.ryy	2.r	.	2cc\	-ti	2.ryy	2.ryy
.	.	.	.	.	.	16c/LL	.	.	.	.	.	.	.	.	.
.	.	.	.	.	.	16c/	.	.	.	.	.	.	.	.	.
.	.	.	.	.	.	16c/JJ	.	.	.	.	.	.	.	.	.
4C/	.	.	4C/	.	16r	16c/LL	.	.	.	.	.	.	.	.	.
.	.	.	.	.	16c/LL	16e/	.	.	.	.	.	.	.	.	.
.	.	.	.	.	16c/	16e/	.	.	.	.	.	.	.	.	.
.	.	.	.	.	16c/JJ	16e/JJ	.	.	.	.	.	.	.	.	.
!	!	!	!	!	!LO:LB:g=original	!	!	!	!	!	!	!	!	!	!
4C/	.	.	4C/	.	16c/LL	16e/LL	.	.	.	.	.	4r	.	.	.
.	.	.	.	.	16e/	16g/	.	.	.	.	.	.	.	.	.
.	.	.	.	.	16e/	16g/	.	.	.	.	.	.	.	.	.
.	.	.	.	.	16e/JJ	16g/JJ	.	.	.	.	.	.	.	.	.
!	!	!	!	!	!	!LO:LB:g=original	!	!	!	!	!	!	!	!	!
=14	=14	=14	=14	=14	=14	=14	=14	=14	=14	=14	=14	=14	=14	=14	=14
*	*	*	*	*	*	*^	*	*	*	*	*	*	*	*	*
4C/	.	.	4C/	.	4e/	4cc/ 4ee/	4g\	4r	.	2.ryy	4r	.	4r	.	2.ryy	2.ryy
4r	.	.	4r	.	4r	4r	4ryy	4c\	Tunc	.	4g\	Tunc	4ee\	tunc	.	.
4r	.	.	4r	.	4r	4r	4ryy	4c\	re-	.	4g\	re-	4ee\	re-	.	.
*	*	*	*	*	*	*v	*v	*	*	*	*	*	*	*	*	*
=15	=15	=15	=15	=15	=15	=15	=15	=15	=15	=15	=15	=15	=15	=15	=15
4C/	.	.	4C/	.	4r	16r	4.c\	-ple-	2.ryy	4.g\	-ple-	4.ee\	-ple-	2.ryy	2.ryy
.	.	.	.	.	.	16c/LL	.	.	.	.	.	.	.	.	.
.	.	.	.	.	.	16c/	.	.	.	.	.	.	.	.	.
.	.	.	.	.	.	16c/JJ	.	.	.	.	.	.	.	.	.
4C/	.	.	4C/	.	16r	16c/LL	.	.	.	.	.	.	.	.	.
.	.	.	.	.	16c/LL	16e/	.	.	.	.	.	.	.	.	.
.	.	.	.	.	16c/	16e/	8c\	-tum	.	8g\	-tum	8ee\	-tu(m)	.	.
.	.	.	.	.	16c/JJ	16e/JJ	.	.	.	.	.	.	.	.	.
4C/	.	.	4C/	.	16c/LL	16e/LL	4c\	est	.	4g\	est	4ee\	est	.	.
.	.	.	.	.	16e/	16g/	.	.	.	.	.	.	.	.	.
.	.	.	.	.	16e/	16g/	.	.	.	.	.	.	.	.	.
.	.	.	.	.	16e/JJ	16g/JJ	.	.	.	.	.	.	.	.	.
=16	=16	=16	=16	=16	=16	=16	=16	=16	=16	=16	=16	=16	=16	=16	=16
4BB-X/	4 2	.	4BB-X/	.	16e/LL	16g\LL	4.B-\	gau-	2.ryy	4.g\	gau-	4.ee\	gau-	2.ryy	2.ryy
.	.	.	.	.	16g/	16cc\	.	.	.	.	.	.	.	.	.
.	.	.	.	.	16g/	16cc\	.	.	.	.	.	.	.	.	.
.	.	.	.	.	16g/JJ	16cc\JJ	.	.	.	.	.	.	.	.	.
4BB-/	.	.	4BB-/	.	16g\LL	16cc\LL	.	.	.	.	.	.	.	.	.
.	.	.	.	.	16cc\	16ee\	.	.	.	.	.	.	.	.	.
.	.	.	.	.	16cc\	16ee\	8B-\	-di-	.	8g\	-di-	8ee\	-di-	.	.
.	.	.	.	.	16cc\JJ	16ee\JJ	.	.	.	.	.	.	.	.	.
4BB-/	.	.	4BB-/	.	16cc\LL	16ee\LL	4B-\	-o	.	4g\	-o	4ee\	-o	.	.
.	.	.	.	.	16ee\	16gg\	.	.	.	.	.	.	.	.	.
.	.	.	.	.	16ee\	16gg\	.	.	.	.	.	.	.	.	.
.	.	.	.	.	16ee\JJ	16gg\JJ	.	.	.	.	.	.	.	.	.
=17	=17	=17	=17	=17	=17	=17	=17	=17	=17	=17	=17	=17	=17	=17	=17
4AA/	6	.	4AA/	.	4ff|\	8.ff\L	4A\	os	2.ryy	4cc\	os	4ff|\	os	2.ryy	2.ryy
.	.	.	.	.	.	16ccc\Jk	.	.	.	.	.	.	.	.	.
.	.	.	.	.	.	8qqccc/	.	.	.	.	.	.	.	.	.
*	*	*	*	*	*	*2\right	*	*	*	*2\right	*	*	*	*	*
4GG/	7	.	4GG/	.	(4ff\	2bb-\	(4G\	nos-	.	2b-\	nos-	(4ff\	nos-	.	.
4C/	7	.	4C/	.	4ee\)	.	4c\)	.	.	.	.	4ee\)	.	.	.
=18	=18	=18	=18	=18	=18	=18	=18	=18	=18	=18	=18	=18	=18	=18	=18
*	*	*	*	*	*	*	*2\right	*	*	*	*	*	*	*	*
!	!	!	!	!	!	!LO:TX:t=P:problem:mixed beam	!	!	!	!	!	!	!	!	!
4FF/	.	.	4FF/	.	4ff\	16aa\LL	2F\	-trum	2.ryy	2a\	-trum	2ff\	-trum	2.ryy	2.ryy
.	.	.	.	.	.	16f/	.	.	.	.	.	.	.	.	.
.	.	.	.	.	.	16f/	.	.	.	.	.	.	.	.	.
.	.	.	.	.	.	16f/JJ	.	.	.	.	.	.	.	.	.
4F\	.	.	4F\	.	16r	16f/LL	.	.	.	.	.	.	.	.	.
.	.	.	.	.	16f/LL	16a/	.	.	.	.	.	.	.	.	.
.	.	.	.	.	16f/	16a/	.	.	.	.	.	.	.	.	.
.	.	.	.	.	16f/JJ	16a/JJ	.	.	.	.	.	.	.	.	.
4F\	.	.	4F\	.	16f/LL	16a\LL	4r	.	.	4r	.	4r	.	.	.
.	.	.	.	.	16a/	16cc\	.	.	.	.	.	.	.	.	.
.	.	.	.	.	16a/	16cc\	.	.	.	.	.	.	.	.	.
.	.	.	.	.	16a/JJ	16cc\JJ	.	.	.	.	.	.	.	.	.
=19	=19	=19	=19	=19	=19	=19	=19	=19	=19	=19	=19	=19	=19	=19	=19
4E-X\	4 2	.	4E-X\	.	16a\LL	16cc\LL	4E-X\	et	2.ryy	4a\	et	4ff\	et	2.ryy	2.ryy
.	.	.	.	.	16cc\	16ff\	.	.	.	.	.	.	.	.	.
.	.	.	.	.	16cc\	16ff\	.	.	.	.	.	.	.	.	.
.	.	.	.	.	16cc\JJ	16ff\JJ	.	.	.	.	.	.	.	.	.
4E-\	.	.	4E-\	.	16cc\LL	16ff\LL	4E-\	lin-	.	4a\	lin-	4ff\	lin-	.	.
.	.	.	.	.	16ff\	16aa\	.	.	.	.	.	.	.	.	.
.	.	.	.	.	16ff\	16aa\	.	.	.	.	.	.	.	.	.
.	.	.	.	.	16ff\JJ	16aa\JJ	.	.	.	.	.	.	.	.	.
4E-\	.	.	4E-\	.	16ff\LL	16aa\LL	4E-\	-gua	.	4a\	-gua	4ff\	-gua	.	.
.	.	.	.	.	16aa\	16ccc\	.	.	.	.	.	.	.	.	.
.	.	.	.	.	16aa\	16ccc\	.	.	.	.	.	.	.	.	.
.	.	.	.	.	16aa\JJ	16ccc\JJ	.	.	.	.	.	.	.	.	.
!LO:LB:g=original	!	!	!	!	!	!	!LO:LB:g=original	!	!	!	!	!	!	!	!
=20	=20	=20	=20	=20	=20	=20	=20	=20	=20	=20	=20	=20	=20	=20	=20
4D/	6	.	4D/	.	16bb-\LL	16ddd\LL	2D/	nos-	2.ryy	2b-\	nos-	2ff\	nos-	2.ryy	2.ryy
.	.	.	.	.	16gg\	16bb-\	.	.	.	.	.	.	.	.	.
.	.	.	.	.	16gg\	16bb-\	.	.	.	.	.	.	.	.	.
.	.	.	.	.	16gg\JJ	16bb-\JJ	.	.	.	.	.	.	.	.	.
4D/	.	.	4D/	.	16gg\LL	16bb-\LL	.	.	.	.	.	.	.	.	.
.	.	.	.	.	16dd\	16ff\	.	.	.	.	.	.	.	.	.
.	.	.	.	.	16dd\	16ff\	.	.	.	.	.	.	.	.	.
.	.	.	.	.	16dd\JJ	16ff\JJ	.	.	.	.	.	.	.	.	.
4D/	.	.	4D/	.	16dd\LL	16ff\LL	4D/	-tra	.	4b-\	-tra	4ff\	-tra	.	.
.	.	.	.	.	16b-\	16dd\	.	.	.	.	.	.	.	.	.
.	.	.	.	.	16b-\	16dd\	.	.	.	.	.	.	.	.	.
.	.	.	.	.	16b-\JJ	16dd\JJ	.	.	.	.	.	.	.	.	.
=21	=21	=21	=21	=21	=21	=21	=21	=21	=21	=21	=21	=21	=21	=21	=21
4BB-/	.	.	4BB-/	.	16b-/LL	16dd\LL	2B-\	ex-	2.ryy	2f\	ex-	2dd\	ex-	2.ryy	2.ryy
.	.	.	.	.	16f/	16b-\	.	.	.	.	.	.	.	.	.
.	.	.	.	.	16f/	16b-\	.	.	.	.	.	.	.	.	.
.	.	.	.	.	16f/JJ	16b-\JJ	.	.	.	.	.	.	.	.	.
4BB-/	.	.	4BB-/	.	16f/LL	16b-/LL	.	.	.	.	.	.	.	.	.
.	.	.	.	.	16d/	16f/	.	.	.	.	.	.	.	.	.
.	.	.	.	.	16d/	16f/	.	.	.	.	.	.	.	.	.
.	.	.	.	.	16d/JJ	16f/JJ	.	.	.	.	.	.	.	.	.
!	!	!	!	!	!	!LO:LB:g=original	!	!	!	!	!	!	!	!	!
4BB-/	.	.	4BB-/	.	16d/LL	16f/LL	4B-\	-ul	.	4f\	-ul-	4dd\	-ul-	.	.
.	.	.	.	.	16B-/	16d/	.	.	.	.	.	.	.	.	.
.	.	.	.	.	16B-/	16d/	.	.	.	.	.	.	.	.	.
.	.	.	.	.	16B-/JJ	16d/JJ	.	.	.	.	.	.	.	.	.
!	!	!	!	!	!LO:LB:g=original	!	!	!	!	!LO:LB:g=original	!	!	!	!	!
=22	=22	=22	=22	=22	=22	=22	=22	=22	=22	=22	=22	=22	=22	=22	=22
4C/	.	.	4C/	.	8G/	8e/	2c\	ta-	2.ryy	8e\	-ta-	8g/	-ta-	2.ryy	2.ryy
.	.	.	.	.	4ee\	4gg\	.	.	.	4g\	.	4ee\	.	.	.
4C/	.	.	4C/	.	.	.	.	.	.	.	.	.	.	.	.
.	.	.	.	.	4ff\	4aa\	.	.	.	4a\	.	4ff\	.	.	.
4C/	6 4	.	4C/	.	.	.	4c\	-ti-	.	.	.	.	.	.	.
.	.	.	.	.	16ee\LL	16gg\LL	.	.	.	16g\LL	.	16ee\LL	.	.	.
.	.	.	.	.	16dd\JJ	16ff\JJ	.	.	.	16f\JJ	.	16dd\JJ	.	.	.
=23	=23	=23	=23	=23	=23	=23	=23	=23	=23	=23	=23	=23	=23	=23	=23
4C/	5 3	.	4C/	.	8ee\	8gg\	2.c\	-o-	2.ryy	8g\	.	8ee\	.	2.ryy	2.ryy
.	.	.	.	.	4g/	4ee\	.	.	.	4e\	.	4g/	.	.	.
4C/	.	.	4C/	.	.	.	.	.	.	.	.	.	.	.	.
.	.	.	.	.	4a/	4ff\	.	.	.	4f\	.	4a\	.	.	.
4C/	6 4	.	4C/	.	.	.	.	.	.	.	.	.	.	.	.
.	.	.	.	.	16g/LL	16ee\LL	.	.	.	16e\LL	.	16g/LL	.	.	.
.	.	.	.	.	16f/JJ	16dd\JJ	.	.	.	16d\JJ	.	16f/JJ	.	.	.
!	!	!	!	!	!	!	!	!	!	!	!	!LO:LB:g=original	!	!	!
=24	=24	=24	=24	=24	=24	=24	=24	=24	=24	=24	=24	=24	=24	=24	=24
4C/	5 3	.	4C/	.	8g/	8ee\	2.c\	-ne	2.ryy	8e\	.	8g/	.	2.ryy	2.ryy
.	.	.	.	.	4ee\	4gg\	.	.	.	4g\	.	4ee\	.	.	.
4C/	.	.	4C/	.	.	.	.	.	.	.	.	.	.	.	.
.	.	.	.	.	4ff\	4aa\	.	.	.	4a\	.	4ff\	.	.	.
4C/	6 4	.	4C/	.	.	.	.	.	.	.	.	.	.	.	.
.	.	.	.	.	16ee\LL	16gg\LL	.	.	.	16g\LL	.	16ee\LL	.	.	.
.	.	.	.	.	16dd\JJ	16ff\JJ	.	.	.	16f\JJ	.	16dd\JJ	.	.	.
=25	=25	=25	=25	=25	=25	=25	=25	=25	=25	=25	=25	=25	=25	=25	=25
4C/	5 3	.	4C/	.	8ee\	8gg\	2c\	ex-	2.ryy	8g\	.	8ee\	.	2.ryy	2.ryy
.	.	.	.	.	4g/	4ee\	.	.	.	4e\	.	4g/	.	.	.
4C/	.	.	4C/	.	.	.	.	.	.	.	.	.	.	.	.
.	.	.	.	.	4a/	4ff\	.	.	.	4f\	.	4a\	.	.	.
4C/	6 4	.	4C/	.	.	.	4c\	-ul	.	.	.	.	.	.	.
.	.	.	.	.	16g/LL	16ee\LL	.	.	.	16e\LL	.	16g/LL	.	.	.
.	.	.	.	.	16f/JJ	16dd\JJ	.	.	.	16d\JJ	.	16f/JJ	.	.	.
!	!	!	!LO:LB:g=original	!	!	!	!	!	!	!	!	!	!	!	!
=26	=26	=26	=26	=26	=26	=26	=26	=26	=26	=26	=26	=26	=26	=26	=26
8C\L	5 3	.	8C\L	.	8g/L	8ee\L	8c\	ta-	2.ryy	8e\	.	8g\	.	2.ryy	2.ryy
8F\J	.	.	8F\J	.	8a/J	8ff\J	8F\	-ti-	.	8f\	-ti-	8a\	-ti-	.	.
.	.	.	.	.	.	.	.	.	.	.	.	8qqa/	.	.	.
4c\	4	.	4c\	.	2gT/	4ff\	4c\	-o-	.	(4f\	-o-	2g/	-o-	.	.
4C/	3	.	4C/	.	.	4eet\	4C/	.	.	4et\)	.	.	.	.	.
=27	=27	=27	=27	=27	=27	=27	=27	=27	=27	=27	=27	=27	=27	=27	=27
!LO:TX:b:t=solo.	!	!	!	!	!	!	!	!	!	!	!	!	!	!	!
4F\	.	.	4F\	.	2a/	8ff\L	2F\	-ne	2.ryy	2f\	-ne	2f/	-ne	2.ryy	2.ryy
.	.	.	.	.	.	8cc\J	.	.	.	.	.	.	.	.	.
4A\	6	.	4A\	.	.	8f/L	.	.	.	.	.	.	.	.	.
!	!	!	!	!	!	!LO:TX:t=P:problem:mixed beam	!	!	!	!	!	!	!	!	!
.	.	.	.	.	.	8ff\J	.	.	.	.	.	.	.	.	.
4Bn\	6 5	.	4Bn\	.	4r	8ff\L	4r	.	.	4r	.	4r	.	.	.
.	.	.	.	.	.	16ee\L	.	.	.	.	.	.	.	.	.
.	.	.	.	.	.	16dd\JJ	.	.	.	.	.	.	.	.	.
=28	=28	=28	=28	=28	=28	=28	=28	=28	=28	=28	=28	=28	=28	=28	=28
!	!	!	!	!	!	!	!LO:TX:a:t=9.	!	!	!LO:TX:a:t=9.	!	!LO:TX:a:t=8.	!	!	!
.	.	.	.	.	.	8qqdd/	.	.	.	.	.	.	.	.	.
4c\	.	.	4c\	.	8r	4ee\	0.r	.	2.ryy	0.r	.	0.r	.	2.ryy	2.ryy
.	.	.	.	.	8g/L	.	.	.	.	.	.	.	.	.	.
4E\	6	.	4E\	.	8c/	4r	.	.	.	.	.	.	.	.	.
.	.	.	.	.	8b-/J	.	.	.	.	.	.	.	.	.	.
4C/	7-r	.	4C/	.	8b-/L	4r	.	.	.	.	.	.	.	.	.
.	.	.	.	.	16a/L	.	.	.	.	.	.	.	.	.	.
.	.	.	.	.	16g/JJ	.	.	.	.	.	.	.	.	.	.
=29	=29	=29	=29	=29	=29	=29	=29	=29	=29	=29	=29	=29	=29	=29	=29
4F\	.	.	4F\	.	4a/	8r	.	.	2.ryy	.	.	.	.	2.ryy	2.ryy
.	.	.	.	.	.	8cc\L	.	.	.	.	.	.	.	.	.
!	!	!	!	!	!	!LO:TX:t=P:problem:mixed beam	!	!	!	!	!	!	!	!	!
4A\	6	.	4A\	.	4.cc\	8f/	.	.	.	.	.	.	.	.	.
.	.	.	.	.	.	8ee-X\J	.	.	.	.	.	.	.	.	.
4F\	7-r	.	4F\	.	.	8ee-\L	.	.	.	.	.	.	.	.	.
.	.	.	.	.	(16b-/LL	16dd\L	.	.	.	.	.	.	.	.	.
.	.	.	.	.	16a/JJ)	16cc\JJ	.	.	.	.	.	.	.	.	.
=30	=30	=30	=30	=30	=30	=30	=30	=30	=30	=30	=30	=30	=30	=30	=30
8B-\L	.	.	8B-\L	.	4b-/	4dd\	.	.	2.ryy	.	.	.	.	2.ryy	2.ryy
8F\	.	.	8F\	.	.	.	.	.	.	.	.	.	.	.	.
8BB-\	.	.	8BB-\	.	4r	8r	.	.	.	.	.	.	.	.	.
8B-\J	.	.	8B-\J	.	.	8ddd\	.	.	.	.	.	.	.	.	.
8B-\L	6	.	8B-\L	.	[4gg\	8ddd\L	.	.	.	.	.	.	.	.	.
16A\L	.	.	16A\L	.	.	16ccc\L	.	.	.	.	.	.	.	.	.
16G\JJ	.	.	16G\JJ	.	.	16bb-\JJ	.	.	.	.	.	.	.	.	.
=31	=31	=31	=31	=31	=31	=31	=31	=31	=31	=31	=31	=31	=31	=31	=31
8A\L	7	.	8A\L	.	4gg\]	4ccc\	.	.	2.ryy	.	.	.	.	2.ryy	2.ryy
8E\	.	.	8E\	.	.	.	.	.	.	.	.	.	.	.	.
8AA\	.	.	8AA\	.	4cc\	8r	.	.	.	.	.	.	.	.	.
8A\J	.	.	8A\J	.	.	8ccc\	.	.	.	.	.	.	.	.	.
8A\L	6	.	8A\L	.	[4ff\	8ccc\L	.	.	.	.	.	.	.	.	.
16G\L	.	.	16G\L	.	.	16bb-\L	.	.	.	.	.	.	.	.	.
16F\JJ	.	.	16F\JJ	.	.	16aa\JJ	.	.	.	.	.	.	.	.	.
!	!	!	!	!	!	!LO:LB:g=original	!	!	!	!	!	!	!	!	!
=32	=32	=32	=32	=32	=32	=32	=32	=32	=32	=32	=32	=32	=32	=32	=32
8G\L	7	.	8G\L	.	4.ff\]	4bb-\	0.r	.	2.ryy	0.r	.	0.r	.	2.ryy	2.ryy
8D\	.	.	8D\	.	.	.	.	.	.	.	.	.	.	.	.
8GG\	.	.	8GG\	.	.	8r	.	.	.	.	.	.	.	.	.
8G\J	.	.	8G\J	.	16ee\LL	8bb-\	.	.	.	.	.	.	.	.	.
.	.	.	.	.	16dd\JJ	.	.	.	.	.	.	.	.	.	.
8G\L	6	.	8G\L	.	4ee\	8bb-\L	.	.	.	.	.	.	.	.	.
16F\L	.	.	16F\L	.	.	16aa\L	.	.	.	.	.	.	.	.	.
16E\JJ	.	.	16E\JJ	.	.	16gg\JJ	.	.	.	.	.	.	.	.	.
!LO:LB:g=original	!	!	!	!	!	!	!	!	!	!	!	!	!	!	!
=33	=33	=33	=33	=33	=33	=33	=33	=33	=33	=33	=33	=33	=33	=33	=33
4F\	.	.	4F\	.	8cc\	8aa\	.	.	2.ryy	.	.	.	.	2.ryy	2.ryy
.	.	.	.	.	4aa\	4ccc\	.	.	.	.	.	.	.	.	.
4r	.	.	4r	.	.	.	.	.	.	.	.	.	.	.	.
.	.	.	.	.	4bb-\	4ddd\	.	.	.	.	.	.	.	.	.
4r	.	.	4r	.	.	.	.	.	.	.	.	.	.	.	.
.	.	.	.	.	16aa\LL	16ccc\LL	.	.	.	.	.	.	.	.	.
.	.	.	.	.	16gg\JJ	16bb-\JJ	.	.	.	.	.	.	.	.	.
!	!	!	!	!	!LO:LB:g=original	!	!	!	!	!	!	!	!	!	!
=34	=34	=34	=34	=34	=34	=34	=34	=34	=34	=34	=34	=34	=34	=34	=34
4F\	.	.	4F\	.	8aa\	8ccc\	.	.	2.ryy	.	.	.	.	2.ryy	2.ryy
.	.	.	.	.	4cc\	4aa\	.	.	.	.	.	.	.	.	.
4FF/	.	.	4FF/	.	.	.	.	.	.	.	.	.	.	.	.
.	.	.	.	.	4dd\	4bb-\	.	.	.	.	.	.	.	.	.
4r	.	.	4r	.	.	.	.	.	.	.	.	.	.	.	.
.	.	.	.	.	16cc\LL	16aa\LL	.	.	.	.	.	.	.	.	.
.	.	.	.	.	16b-\JJ	16gg\JJ	.	.	.	.	.	.	.	.	.
=35	=35	=35	=35	=35	=35	=35	=35	=35	=35	=35	=35	=35	=35	=35	=35
8F\L	.	.	8F\L	.	8a/	8.ff\L	.	.	2.ryy	.	.	.	.	2.ryy	2.ryy
8A\	.	.	8A\	.	4ff\	.	.	.	.	.	.	.	.	.	.
.	.	.	.	.	.	16cc\Jk	.	.	.	.	.	.	.	.	.
8B-\	6 5	.	8B-\	.	.	2ggT\	.	.	.	.	.	.	.	.	.
8G\	.	.	8G\	.	16ee\LL	.	.	.	.	.	.	.	.	.	.
.	.	.	.	.	16dd\JJ	.	.	.	.	.	.	.	.	.	.
8c\	.	.	8c\	.	4eet\	.	.	.	.	.	.	.	.	.	.
!LO:TX:t=P:problem:mixed beam	!	!	!LO:TX:t=P:problem:mixed beam	!	!	!	!	!	!	!	!	!	!	!	!
8C/J	.	.	8C/J	.	.	.	.	.	.	.	.	.	.	.	.
=36	=36	=36	=36	=36	=36	=36	=36	=36	=36	=36	=36	=36	=36	=36	=36
4F\	.	.	4F\	.	4ff\	4ff\	2.r	.	2.ryy	2.r	.	8r	.	2.ryy	2.ryy
!	!	!	!	!	!	!	!	!	!	!	!	!LO:TX:a:t=Solo.	!	!	!
.	.	.	.	.	.	.	.	.	.	.	.	8cc\	tunc	.	.
4A\	6	.	4A\	.	4r	4r	.	.	.	.	.	8f/	di-	.	.
.	.	.	.	.	.	.	.	.	.	.	.	8ff\	-cent	.	.
4Bn\	6 5	.	4Bn\	.	4r	4r	.	.	.	.	.	8ff\	in-	.	.
.	.	.	.	.	.	.	.	.	.	.	.	(16ee\LL	-ter	.	.
.	.	.	.	.	.	.	.	.	.	.	.	16dd\JJ)	.	.	.
=37	=37	=37	=37	=37	=37	=37	=37	=37	=37	=37	=37	=37	=37	=37	=37
!	!	!	!	!	!LO:TX:a:t=7.	!LO:TX:a:t=8.	!	!	!	!	!	!	!	!	!
4c\	.	.	4c\	.	0.r	0.r	8r	.	2.ryy	8r	.	4ee\	gen-	2.ryy	2.ryy
.	.	.	.	.	.	.	8c\	Mag-	.	8g\	Mag-	.	.	.	.
4E\	6	.	4E\	.	.	.	8E\	-ni-	.	8c/	-ni-	4ee\	-tes	.	.
.	.	.	.	.	.	.	8E\	-fi-	.	8b-\	-fi-	.	.	.	.
4C/	7	.	4C/	.	.	.	8C/	-ca-	.	8b-\	-ca-	4r	.	.	.
.	.	.	.	.	.	.	8C/	-vit	.	16a\LL	-vit	.	.	.	.
.	.	.	.	.	.	.	.	.	.	16g\JJ	.	.	.	.	.
!	!	!	!	!	!	!	!LO:LB:g=original	!	!	!	!	!	!	!	!
=38	=38	=38	=38	=38	=38	=38	=38	=38	=38	=38	=38	=38	=38	=38	=38
4F\	.	.	4F\	.	.	.	4.F\	Do-	2.ryy	4.a\	Do-	4.ff\	Do-	2.ryy	2.ryy
4F\	.	.	4F\	.	.	.	.	.	.	.	.	.	.	.	.
.	.	.	.	.	.	.	8F\	-mi-	.	8a\	-mi-	8cc\	-mi-	.	.
4F\	.	.	4F\	.	.	.	4F\	-nus	.	4a\	-nus	4cc\	-nus	.	.
!	!	!	!	!	!	!	!	!	!	!LO:LB:g=original	!	!	!	!	!
=39	=39	=39	=39	=39	=39	=39	=39	=39	=39	=39	=39	=39	=39	=39	=39
4F\	6 4	.	4F\	.	.	.	4.F\	fa-	2.ryy	4.b-\	fa-	4.dd\	fa-	2.ryy	2.ryy
4F\	.	.	4F\	.	.	.	.	.	.	.	.	.	.	.	.
.	.	.	.	.	.	.	8F\	-ce-	.	8a\	-ce-	8cc\	-ce-	.	.
4F\	5 3	.	4F\	.	.	.	4F\	-re	.	4a\	-re	4cc\	-re	.	.
!	!	!	!LO:LB:g=original	!	!	!	!	!	!	!	!	!	!	!	!
=40	=40	=40	=40	=40	=40	=40	=40	=40	=40	=40	=40	=40	=40	=40	=40
4F\	.	.	4F\	.	.	.	4F\	no-	2.ryy	4a\	cum	(8ff\L	cum	2.ryy	2.ryy
.	.	.	.	.	.	.	.	.	.	.	.	8dd\J)	.	.	.
.	.	.	.	.	.	.	.	.	.	8qqa/	.	8qqcc/	.	.	.
8E\L	6 5	.	8E\L	.	.	.	2E\	-bis	.	2g\	e-	2b-T\	e-	.	.
8G\	.	.	8G\	.	.	.	.	.	.	.	.	.	.	.	.
8C\	7	.	8C\	.	.	.	.	.	.	.	.	.	.	.	.
8E\J	.	.	8E\J	.	.	.	.	.	.	.	.	.	.	.	.
!	!	!	!	!	!	!	!	!	!	!	!	!LO:LB:g=original	!	!	!
=41	=41	=41	=41	=41	=41	=41	=41	=41	=41	=41	=41	=41	=41	=41	=41
2F\	.	.	2F\	.	1.r	0.r	4F\	-cum	2.ryy	4f\	-is	4a\	-is	2.ryy	2.ryy
.	.	.	.	.	.	.	4F\	fa-	.	4a\	fa-	4cc\	fa-	.	.
4E\	6\	.	4E\	.	.	.	4E\	-cti	.	4g\	-cti	4cc#X\	-cti	.	.
=42	=42	=42	=42	=42	=42	=42	=42	=42	=42	=42	=42	=42	=42	=42	=42
2.D/	.	.	2.D/	.	.	.	2D/	su-	2.ryy	(4f\	su-	(4dd\	su-	2.ryy	2.ryy
.	.	.	.	.	.	.	.	.	.	4g\)	.	4ee\)	.	.	.
.	.	.	.	.	.	.	4D/	-mus	.	4a\	-mus	4ff\	-mus	.	.
=43	=43	=43	=43	=43	=43	=43	=43	=43	=43	=43	=43	=43	=43	=43	=43
4C/	.	.	4C/	.	2.r	.	4C/	lae-	2.ryy	2.a\	la-	4ee\	la-	2.ryy	2.ryy
*	*	*	*	*	*	*	*	*	*	*	*	*Xtuplet	*	*	*
!	!	!	!	!	!	!	!	!	!	!	!	!LO:TUP:a:problem:klamra łukowa	!	!	!
4D/	.	.	4D/	.	.	.	4D/	.	.	.	.	12ff\L	.	.	.
.	.	.	.	.	.	.	.	.	.	.	.	12ee\	.	.	.
.	.	.	.	.	.	.	.	.	.	.	.	12dd\J	.	.	.
!	!	!	!	!	!	!	!	!	!	!	!	!LO:TUP:a:problem:klamra łukowa	!	!	!
4D#X/	7 5	.	4D#X/	.	.	.	4D#X/	.	.	.	.	12cc\L	.	.	.
.	.	.	.	.	.	.	.	.	.	.	.	12bn\	.	.	.
.	.	.	.	.	.	.	.	.	.	.	.	12a\J	.	.	.
=44	=44	=44	=44	=44	=44	=44	=44	=44	=44	=44	=44	=44	=44	=44	=44
2E\	#	.	2E\	.	8r	.	4E\	-tan-	2.ryy	4c/	-tan-	4a\	-tan-	2.ryy	2.ryy
.	.	.	.	.	8bn/L	.	.	.	.	.	.	.	.	.	.
.	.	.	.	.	8e/	.	4E\	-tes	.	4Bn/	-tes	4g#X/	-tes	.	.
!	!	!	!	!	!LO:TX:t=P:problem:mixed beam	!	!	!	!	!	!	!	!	!	!
.	.	.	.	.	8dd\J	.	.	.	.	.	.	.	.	.	.
4GG#X/	6 5	.	4GG#X/	.	8dd\L	.	4r	.	.	4r	.	4r	.	.	.
.	.	.	.	.	16cc\L	.	.	.	.	.	.	.	.	.	.
.	.	.	.	.	16bn\JJ	.	.	.	.	.	.	.	.	.	.
=45	=45	=45	=45	=45	=45	=45	=45	=45	=45	=45	=45	=45	=45	=45	=45
!LO:TX:b:i:t=Tutti.	!	!	!LO:TX:b:i:t=Tutti	!	!	!	!	!	!	!	!	!	!	!	!
4AA/	.	.	4AA/	.	4cc\	8r	4A\	con-	2.ryy	4a\	con-	4cc\	con-	2.ryy	2.ryy
.	.	.	.	.	.	8ee\L	.	.	.	.	.	.	.	.	.
*	*	*	*	*	*2\right	*	*	*	*	*	*	*	*	*	*
4AA/	.	.	4AA/	.	2cc#X\	8a\	4A\	-ver-	.	4a\	-ver-	4cc#X\	-ver-	.	.
.	.	.	.	.	.	8gg\J	.	.	.	.	.	.	.	.	.
4AA/	.	.	4AA/	.	.	8gg\L	4A\	-te	.	4a\	-te	4cc#\	-te	.	.
.	.	.	.	.	.	16ff\L	.	.	.	.	.	.	.	.	.
.	.	.	.	.	.	16ee\JJ	.	.	.	.	.	.	.	.	.
!LO:LB:g=original	!	!	!	!	!	!	!	!	!	!	!	!	!	!	!
=46	=46	=46	=46	=46	=46	=46	=46	=46	=46	=46	=46	=46	=46	=46	=46
4D/	8 n	.	4D/	.	8r	4ff\	4.d\	Do-	2.ryy	4.a\	Do-	4.dd\	Do-	2.ryy	2.ryy
.	.	.	.	.	8a/L	.	.	.	.	.	.	.	.	.	.
4D/	7 #	.	4D/	.	8d/	2ff#X\	.	.	.	.	.	.	.	.	.
!	!	!	!	!	!LO:TX:t=P:problem:mixed beam	!	!	!	!	!	!	!	!	!	!
.	.	.	.	.	8ccn\J	.	8d\	-mi-	.	8a\	-mi-	8dd\	-mi-	.	.
4D/	.	.	4D/	.	8cc\L	.	4d\	-ne	.	4a\	-ne	4dd\	-ne	.	.
.	.	.	.	.	16bn\L	.	.	.	.	.	.	.	.	.	.
.	.	.	.	.	16a\JJ	.	.	.	.	.	.	.	.	.	.
!	!	!	!	!	!	!	!LO:LB:g=original	!	!	!	!	!	!	!	!
=47	=47	=47	=47	=47	=47	=47	=47	=47	=47	=47	=47	=47	=47	=47	=47
4GG/	n	.	4GG/	.	4bn/	8r	4G\	ca-	2.ryy	4g\	ca-	4bn\	ca-	2.ryy	2.ryy
.	.	.	.	.	.	8dd\L	.	.	.	.	.	.	.	.	.
4GG/	7	.	4GG/	.	2b/	8g\	8G\	-pti-	.	8g\	-pti-	8b\	-pti-	.	.
.	.	.	.	.	.	8ffn\J	8G\	-vi-	.	8g\	-vi-	8b\	-vi-	.	.
4GG/	.	.	4GG/	.	.	8ff\L	8G\	-ta	.	8g\	-ta	8b\	-ta	.	.
.	.	.	.	.	.	16ee\L	8G\	tem	.	8g\	tem	8b\	tem	.	.
.	.	.	.	.	.	16dd\JJ	.	.	.	.	.	.	.	.	.
=48	=48	=48	=48	=48	=48	=48	=48	=48	=48	=48	=48	=48	=48	=48	=48
4C/	8	.	4C/	.	8r	4ee\	2c\	nos-	2.ryy	2g\	nos-	2cc\	nos-	2.ryy	2.ryy
.	.	.	.	.	8g/L	.	.	.	.	.	.	.	.	.	.
4C/	n7r	.	4C/	.	8c/	2ee\	.	.	.	.	.	.	.	.	.
.	.	.	.	.	8bn/J	.	.	.	.	.	.	.	.	.	.
4C/	.	.	4C/	.	8b/L	.	4c\	-tram	.	4g\	-tram	4cc\	-tram	.	.
.	.	.	.	.	16a/L	.	.	.	.	.	.	.	.	.	.
.	.	.	.	.	16g/JJ	.	.	.	.	.	.	.	.	.	.
!	!	!	!	!	!	!	!	!	!	!LO:LB:g=original	!	!	!	!	!
=49	=49	=49	=49	=49	=49	=49	=49	=49	=49	=49	=49	=49	=49	=49	=49
4F\	7	.	4F\	.	4a/	8r	2F\	si-	2.ryy	2f\	si-	2a\	si-	2.ryy	2.ryy
.	.	.	.	.	.	8cc\L	.	.	.	.	.	.	.	.	.
4F\	.	.	4F\	.	2a/	8f\	.	.	.	.	.	.	.	.	.
.	.	.	.	.	.	8ee\J	.	.	.	.	.	.	.	.	.
.	.	.	.	.	.	8qqff/	.	.	.	.	.	.	.	.	.
4F\	.	.	4F\	.	.	8ee\L	4F\	-cut	.	4f\	-cut	4a\	-cut	.	.
.	.	.	.	.	.	16dd\L	.	.	.	.	.	.	.	.	.
.	.	.	.	.	.	16cc\JJ	.	.	.	.	.	.	.	.	.
!	!	!	!	!	!LO:LB:g=original	!	!	!	!	!	!	!LO:LB:g=original	!	!	!
=50	=50	=50	=50	=50	=50	=50	=50	=50	=50	=50	=50	=50	=50	=50	=50
4BBn/	7	.	4BBn/	.	8r	4dd\	2Bn\	tor-	2.ryy	2f#X\	tor-	2bn\	tor-	2.ryy	2.ryy
.	.	.	.	.	8f#X/L	.	.	.	.	.	.	.	.	.	.
4BB/	.	.	4BB/	.	8Bn/	2dd\	.	.	.	.	.	.	.	.	.
.	.	.	.	.	8a/J	.	.	.	.	.	.	.	.	.	.
4BB/	.	.	4BB/	.	8a/L	.	4B\	-rens	.	4f#\	-rens	4b\	-rens	.	.
.	.	.	.	.	16g#X/L	.	.	.	.	.	.	.	.	.	.
.	.	.	.	.	16f#X/JJ	.	.	.	.	.	.	.	.	.	.
!	!	!	!	!	!	!LO:LB:g=original	!	!	!	!	!	!	!	!	!
=51	=51	=51	=51	=51	=51	=51	=51	=51	=51	=51	=51	=51	=51	=51	=51
4E\	7 #	.	4E\	.	4g#X/	8r	2.E\	in	2.ryy	2.e\	in	2.g#X/	in	2.ryy	2.ryy
.	.	.	.	.	.	8bn/L	.	.	.	.	.	.	.	.	.
!	!	!	!	!	!	!LO:TX:t=P:problem:mixed beam	!	!	!	!	!	!	!	!	!
4E\	.	.	4E\	.	2g#/	8e/	.	.	.	.	.	.	.	.	.
.	.	.	.	.	.	8dd\J	.	.	.	.	.	.	.	.	.
.	.	.	.	.	.	8qqff/	.	.	.	.	.	.	.	.	.
4E\	.	.	4E\	.	.	8ee\L	.	.	.	.	.	.	.	.	.
.	.	.	.	.	.	16dd\L	.	.	.	.	.	.	.	.	.
.	.	.	.	.	.	16bn\JJ	.	.	.	.	.	.	.	.	.
=52	=52	=52	=52	=52	=52	=52	=52	=52	=52	=52	=52	=52	=52	=52	=52
4AA/	3	.	4AA/	.	8r	4cc\	2A\	au-	2.ryy	2e\	au-	2a\	au-	2.ryy	2.ryy
.	.	.	.	.	8e/L	.	.	.	.	.	.	.	.	.	.
4AA/	.	.	4AA/	.	8A/	2cc\	.	.	.	.	.	.	.	.	.
.	.	.	.	.	8e/J	.	.	.	.	.	.	.	.	.	.
4AA/	.	.	4AA/	.	8e/L	.	4A\	-stro	.	4e\	-stro	4a\	-stro	.	.
.	.	.	.	.	16d/L	.	.	.	.	.	.	.	.	.	.
.	.	.	.	.	16c/JJ	.	.	.	.	.	.	.	.	.	.
=53	=53	=53	=53	=53	=53	=53	=53	=53	=53	=53	=53	=53	=53	=53	=53
!	!	!	!	!	!LO:TX:t=P:problem:mixed beam	!	!	!	!	!	!	!	!	!	!
4C/	6	.	4C/	.	8e|/L	8aa|\L	2.A\	qui	2.ryy	2.e\	qui	2.a\	qui	2.ryy	2.ryy
.	.	.	.	.	(8ee'\	(8aa'\	.	.	.	.	.	.	.	.	.
4C/	.	.	4C/	.	8ee'\	8aa'\	.	.	.	.	.	.	.	.	.
.	.	.	.	.	8ee'\	8aa'\	.	.	.	.	.	.	.	.	.
4C/	.	.	4C/	.	8ee'\	8aa'\	.	.	.	.	.	.	.	.	.
.	.	.	.	.	8ee'\J)	8aa'\J)	.	.	.	.	.	.	.	.	.
=54	=54	=54	=54	=54	=54	=54	=54	=54	=54	=54	=54	=54	=54	=54	=54
!	!	!	!	!	!LO:TX:t=P:problem:mixed beam	!	!	!	!	!	!	!	!	!	!
4D/	-6r 5	.	4D/	.	8f|/L	8bb-X|\L	4.A\	se-	2.ryy	4.f\	se-	4.b-X\	se-	2.ryy	2.ryy
.	.	.	.	.	(8ff'\	(8bb-'\	.	.	.	.	.	.	.	.	.
4D/	.	.	4D/	.	8ff'\	8bb-'\	.	.	.	.	.	.	.	.	.
.	.	.	.	.	8ff'\	8bb-'\	8A\	-mi-	.	8f\	-mi-	8b-\	-mi-	.	.
4D/	.	.	4D/	.	8ff'\	8bb-'\	4A\	-nant	.	4f\	-nant	4b-\	-nant	.	.
.	.	.	.	.	8ff'\J)	8bb-'\J)	.	.	.	.	.	.	.	.	.
=55	=55	=55	=55	=55	=55	=55	=55	=55	=55	=55	=55	=55	=55	=55	=55
!	!	!	!	!	!LO:TX:t=P:problem:mixed beam	!	!	!	!	!	!	!	!	!	!
4E\	6\ 3	.	4E\	.	8g|/L	8ccc#X|\L	2.Gn\	in	2.ryy	2.gn\	in	2.cc#X\	in	2.ryy	2.ryy
.	.	.	.	.	(8gg'\	(8ccc#'\	.	.	.	.	.	.	.	.	.
4E\	.	.	4E\	.	8gg'\	8ccc#'\	.	.	.	.	.	.	.	.	.
.	.	.	.	.	8gg'\	8ccc#'\	.	.	.	.	.	.	.	.	.
4E\	.	.	4E\	.	8gg'\	8ccc#'\	.	.	.	.	.	.	.	.	.
.	.	.	.	.	8gg'\J)	8ccc#'\J)	.	.	.	.	.	.	.	.	.
=56	=56	=56	=56	=56	=56	=56	=56	=56	=56	=56	=56	=56	=56	=56	=56
!	!	!	!	!	!LO:TX:t=P:problem:mixed beam	!	!	!	!	!	!	!	!	!	!
4F\	6	.	4F\	.	8a|/L	8ddd|\L	4.F\	la-	2.ryy	4.a\	la-	4.dd\	la-	2.ryy	2.ryy
.	.	.	.	.	(8aa'\	(8ddd'\	.	.	.	.	.	.	.	.	.
4F\	.	.	4F\	.	8aa'\	8ddd'\	.	.	.	.	.	.	.	.	.
.	.	.	.	.	8aa'\	8ddd'\	8F\	-chry-	.	8a\	-chry-	8dd\	-chry-	.	.
4F\	.	.	4F\	.	8aa'\	8ddd'\	4F\	-mis	.	4a\	-mis	4dd\	-mis	.	.
.	.	.	.	.	8aa'\J)	8ddd'\J)	.	.	.	.	.	.	.	.	.
!	!	!	!	!	!	!	!LO:LB:g=original	!	!	!	!	!	!	!	!
=57	=57	=57	=57	=57	=57	=57	=57	=57	=57	=57	=57	=57	=57	=57	=57
4GG#X/	7 5	.	4GG#X/	.	4dd\	4ff\	4GG#X/	cum	2.ryy	4f\	cum	4dd\	cum	2.ryy	2.ryy
4GG#/	.	.	4GG#/	.	4dd\	4ff\	4GG#/	ex-	.	4f\	ex-	4dd\	ex-	.	.
4GG#/	.	.	4GG#/	.	4dd\	4ff\	4GG#/	-ul-	.	4f\	-ul-	4dd\	-ul-	.	.
=58	=58	=58	=58	=58	=58	=58	=58	=58	=58	=58	=58	=58	=58	=58	=58
4.AA/	.	.	4.AA/	.	4.cc\	4.ee\	4.AA/	-ta-	2.ryy	4.e\	-ta-	4.cc\	-ta-	2.ryy	2.ryy
8BBn/	.	.	8BBn/	.	8bn/	8dd\	8BBn/	-ti-	.	8d\	-ti-	8bn\	-ti-	.	.
4C/	6	.	4C/	.	[4a/	[4cc\	4C/	-o-	.	4c/	-o-	4a\	-o-	.	.
!	!	!	!LO:LB:g=original	!	!	!	!	!	!	!	!	!	!	!	!
=59	=59	=59	=59	=59	=59	=59	=59	=59	=59	=59	=59	=59	=59	=59	=59
4D\	7	.	4D\	.	4a/]	8cc\L]	4D/	-ne	2.ryy	4c/	-ne	4a\	-ne	2.ryy	2.ryy
.	.	.	.	.	.	8dd\J	.	.	.	.	.	.	.	.	.
4E\	#	.	4E\	.	2g#Xt/	2bnt\	2E\	me-	.	2Bn/	me-	2g#Xt/	me-	.	.
4EE/	.	.	4EE/	.	.	.	.	.	.	.	.	.	.	.	.
!LO:LB:g=original	!	!	!	!	!LO:LB:g=original	!	!	!	!	!	!	!	!	!	!
=60	=60	=60	=60	=60	=60	=60	=60	=60	=60	=60	=60	=60	=60	=60	=60
!LO:TX:b:t=Solo uniſs&colon;	!	!	!LO:TX:b:t=Solo uniſs&colon;	!	!	!	!	!	!	!	!	!	!	!	!
8AA/L	.	.	8AA/L	.	8a\L	8a\L	2AA/	-tent	2.ryy	2c/	-tent	2a\	-tent	2.ryy	2.ryy
!LO:TX:t=P:problem:mixed beam	!	!	!LO:TX:t=P:problem:mixed beam	!	!	!	!	!	!	!	!	!	!	!	!
8E\J	.	.	8E\J	.	8ee\	8ee\	.	.	.	.	.	.	.	.	.
8AA/L	.	.	8AA/L	.	8a\	8a\	.	.	.	.	.	.	.	.	.
!LO:TX:t=P:problem:mixed beam	!	!	!LO:TX:t=P:problem:mixed beam	!	!	!	!	!	!	!	!	!	!	!	!
8A\J	.	.	8A\J	.	8aa\J	8aa\J	.	.	.	.	.	.	.	.	.
8A\L	.	.	8A\L	.	8aa\L	8aa\L	4r	.	.	4r	.	4r	.	.	.
16G\L	.	.	16G\L	.	16gg\L	16gg\L	.	.	.	.	.	.	.	.	.
16F#X\JJ	.	.	16F#X\JJ	.	16ff#X\JJ	16ff#X\JJ	.	.	.	.	.	.	.	.	.
!	!	!	!	!	!	!	!	!	!	!LO:LB:g=original	!	!LO:LB:g=original	!	!	!
=61	=61	=61	=61	=61	=61	=61	=61	=61	=61	=61	=61	=61	=61	=61	=61
!	!	!	!	!	!	!	!LO:TX:a:t=4.	!	!	!LO:TX:a:t=11.	!	!LO:TX:a:t=14.	!	!	!
8G|\L	.	.	8G|\L	.	8gg\L	8gg\L	0.r	.	2.ryy	0.r	.	0.r	.	2.ryy	2.ryy
8D|\	.	.	8D|\	.	8dd\	8dd\	.	.	.	.	.	.	.	.	.
!LO:TX:t=P:problem:mixed beam	!	!	!LO:TX:t=P:problem:mixed beam	!	!	!LO:TX:t=P:problem:mixed beam	!	!	!	!	!	!	!	!	!
8GG|/	.	.	8GG|/	.	8g\	8g/	.	.	.	.	.	.	.	.	.
8G|\J	.	.	8G|\J	.	8gg\J	8gg\J	.	.	.	.	.	.	.	.	.
8G\L	.	.	8G\L	.	8gg\L	8gg\L	.	.	.	.	.	.	.	.	.
16Fn\L	.	.	16Fn\L	.	16ffn\L	16ffn\L	.	.	.	.	.	.	.	.	.
16E\JJ	.	.	16E\JJ	.	16ee\JJ	16ee\JJ	.	.	.	.	.	.	.	.	.
!	!	!	!	!	!	!LO:LB:g=original	!	!	!	!	!	!	!	!	!
=62	=62	=62	=62	=62	=62	=62	=62	=62	=62	=62	=62	=62	=62	=62	=62
8F\L	.	.	8F\L	.	8ff\L	8ff\L	.	.	2.ryy	.	.	.	.	2.ryy	2.ryy
8C\	.	.	8C\	.	8cc\	8cc\	.	.	.	.	.	.	.	.	.
!LO:TX:t=P:problem:mixed beam	!	!	!LO:TX:t=P:problem:mixed beam	!	!	!LO:TX:t=P:problem:mixed beam	!	!	!	!	!	!	!	!	!
8FF/	.	.	8FF/	.	8f\	8f/	.	.	.	.	.	.	.	.	.
8F\J	.	.	8F\J	.	8ff\J	8ff\J	.	.	.	.	.	.	.	.	.
8F\L	.	.	8F\L	.	8ff\L	8ff\L	.	.	.	.	.	.	.	.	.
16E\L	.	.	16E\L	.	16ee\L	16ee\L	.	.	.	.	.	.	.	.	.
16D\JJ	.	.	16D\JJ	.	16dd\JJ	16dd\JJ	.	.	.	.	.	.	.	.	.
=63	=63	=63	=63	=63	=63	=63	=63	=63	=63	=63	=63	=63	=63	=63	=63
8.E\L	.	.	8.E\L	.	8.ee\L	8.ee\L	.	.	2.ryy	.	.	.	.	2.ryy	2.ryy
16Bn\Jk	.	.	16Bn\Jk	.	16bn\Jk	16bn\Jk	.	.	.	.	.	.	.	.	.
8.c\L	.	.	8.c\L	.	8.cc\L	8.cc\L	.	.	.	.	.	.	.	.	.
16G#X\Jk	.	.	16G#X\Jk	.	16g#X\Jk	16g#X\Jk	.	.	.	.	.	.	.	.	.
8.A\L	.	.	8.A\L	.	8.a/L	8.a/L	.	.	.	.	.	.	.	.	.
16E\Jk	.	.	16E\Jk	.	16e/Jk	16e/Jk	.	.	.	.	.	.	.	.	.
=64	=64	=64	=64	=64	=64	=64	=64	=64	=64	=64	=64	=64	=64	=64	=64
8.F\L	.	.	8.F\L	.	8.f/L	8.f/L	.	.	2.ryy	.	.	.	.	2.ryy	2.ryy
!	!	!	!	!	!LO:TX:t=P:problem:mixed beam	!LO:TX:t=P:problem:mixed beam	!	!	!	!	!	!	!	!	!
16d#X\Jk	.	.	16d#X\Jk	.	16dd#X\Jk	16dd#X\Jk	.	.	.	.	.	.	.	.	.
4e\	.	.	4e\	.	4ee\	4ee\	.	.	.	.	.	.	.	.	.
4E\	.	.	4E\	.	4e/	4e/	.	.	.	.	.	.	.	.	.
=65	=65	=65	=65	=65	=65	=65	=65	=65	=65	=65	=65	=65	=65	=65	=65
4AA/	.	.	4AA/	.	4a/	4a/	(4E\	eun	2.ryy	0.r	.	0.r	.	2.ryy	2.ryy
!	!	!LO:DY:b:t=pia	!	!LO:DY:b:t=po.	!	!	!	!	!	!	!	!	!	!	!
4C/	6	p	4C/	p	4r	4r	4AA/)	.	.	.	.	.	.	.	.
[4F\	6	.	[4F\	.	4r	4r	4A\	-tes	.	.	.	.	.	.	.
=66	=66	=66	=66	=66	=66	=66	=66	=66	=66	=66	=66	=66	=66	=66	=66
!	!	!	!	!	!LO:TX:a:t=13.	!LO:TX:a:t=13.	!	!	!	!	!	!	!	!	!
.	.	.	.	.	.	.	8qqA/	.	.	.	.	.	.	.	.
4F\]	4nr 2#r	.	4F\]	.	0.r	0.r	2G#X\	i-	2.ryy	.	.	.	.	2.ryy	2.ryy
8E\L	.	.	8E\L	.	.	.	.	.	.	.	.	.	.	.	.
8D\J	.	.	8D\J	.	.	.	.	.	.	.	.	.	.	.	.
4C/	6	.	4C/	.	.	.	4A\	-bant	.	.	.	.	.	.	.
=67	=67	=67	=67	=67	=67	=67	=67	=67	=67	=67	=67	=67	=67	=67	=67
2.GG#X/	7 5	.	2.GG#/	.	.	.	(8B-\L	et-	2.ryy	.	.	.	.	2.ryy	2.ryy
.	.	.	.	.	.	.	8G#X\J)	.	.	.	.	.	.	.	.
.	.	.	.	.	.	.	4Fn\	.	.	.	.	.	.	.	.
.	6 5	.	.	.	.	.	8E\L	.	.	.	.	.	.	.	.
.	.	.	.	.	.	.	8D\J	.	.	.	.	.	.	.	.
=68	=68	=68	=68	=68	=68	=68	=68	=68	=68	=68	=68	=68	=68	=68	=68
8r	7 #	.	8r	.	.	.	4D\	-fle-	2.ryy	.	.	.	.	2.ryy	2.ryy
!LO:TX:t=P:problem:mixed beam	!	!	!	!	!	!	!	!	!	!	!	!	!	!	!
8E\L	.	.	8E\L	.	.	.	.	.	.	.	.	.	.	.	.
8AA/	3	.	8AA/	.	.	.	4C/	-bant	.	.	.	.	.	.	.
8A\J	.	.	8A\J	.	.	.	.	.	.	.	.	.	.	.	.
8A\L	.	.	8A\L	.	.	.	4r	.	.	.	.	.	.	.	.
16G#X\L	.	.	16G#X\L	.	.	.	.	.	.	.	.	.	.	.	.
16F#X\JJ	.	.	16F#X\JJ	.	.	.	.	.	.	.	.	.	.	.	.
!LO:LB:g=original	!	!	!	!	!	!	!LO:PB:g=original	!	!	!	!	!	!	!	!
=69	=69	=69	=69	=69	=69	=69	=69	=69	=69	=69	=69	=69	=69	=69	=69
4G#X\	6	.	4G#X\	.	.	.	8r	.	2.ryy	1.r	.	0.r	.	2.ryy	2.ryy
.	.	.	.	.	.	.	8Bn\	mit-	.	.	.	.	.	.	.
2GG#X/	5	.	2GG#X/	.	.	.	8E\	-ten-	.	.	.	.	.	.	.
.	.	.	.	.	.	.	8d\	-tes	.	.	.	.	.	.	.
.	.	.	.	.	.	.	8d\L	.	.	.	.	.	.	.	.
.	.	.	.	.	.	.	16c\L	se-	.	.	.	.	.	.	.
.	.	.	.	.	.	.	16Bn\JJ	.	.	.	.	.	.	.	.
=70	=70	=70	=70	=70	=70	=70	=70	=70	=70	=70	=70	=70	=70	=70	=70
4AA/	.	.	4AA/	.	0.r	0.r	(4c\	.	2.ryy	.	.	.	.	2.ryy	2.ryy
4BBn/	#	.	4BBn/	.	.	.	8D#X/)	.	.	.	.	.	.	.	.
.	.	.	.	.	.	.	8D#/	-mi-	.	.	.	.	.	.	.
4C/	.	.	4C/	.	.	.	[4E\	-na	.	.	.	.	.	.	.
!	!	!	!LO:LB:g=original	!	!	!	!	!	!	!	!	!	!	!	!
=71	=71	=71	=71	=71	=71	=71	=71	=71	=71	=71	=71	=71	=71	=71	=71
4AA/	6 5	.	4AA/	.	.	.	8E\L]	.	2.ryy	2.r	.	.	.	2.ryy	2.ryy
.	.	.	.	.	.	.	8F#X\J	.	.	.	.	.	.	.	.
4BBn/	4	.	4BBn/	.	.	.	2F#t\	su-	.	.	.	.	.	.	.
4BB/	#	.	4BB/	.	.	.	.	.	.	.	.	.	.	.	.
=72	=72	=72	=72	=72	=72	=72	=72	=72	=72	=72	=72	=72	=72	=72	=72
4E\	.	.	4E\	.	.	.	4E\	-a	2.ryy	8r	.	.	.	2.ryy	2.ryy
.	.	.	.	.	.	.	.	.	.	16e\	ve-	.	.	.	.
.	.	.	.	.	.	.	.	.	.	16e\	-ni	.	.	.	.
4c\	6	.	4c\	.	.	.	4r	.	.	8A/	en-	.	.	.	.
.	.	.	.	.	.	.	.	.	.	8a\	-tes	.	.	.	.
4A\	.	.	4A\	.	.	.	4r	.	.	8a\	au-	.	.	.	.
.	.	.	.	.	.	.	.	.	.	8a\	-tem	.	.	.	.
=73	=73	=73	=73	=73	=73	=73	=73	=73	=73	=73	=73	=73	=73	=73	=73
!	!	!	!	!	!	!	!LO:TX:a:t=6.	!	!	!	!	!	!	!	!
8r	.	.	8r	.	.	.	0.r	.	2.ryy	8.a\	ve-	1.r	.	2.ryy	2.ryy
8Bn\L	7	.	8Bn\L	.	.	.	.	.	.	.	.	.	.	.	.
.	.	.	.	.	.	.	.	.	.	16g#X\	-ni-	.	.	.	.
8E\	#3	.	8E\	.	.	.	.	.	.	8g#\	-ent	.	.	.	.
8e\	.	.	8e\	.	.	.	.	.	.	8g#\	cu(m)	.	.	.	.
8d\	.	.	8d\	.	.	.	.	.	.	8g#\	ex-	.	.	.	.
8c\J	6	.	8c\J	.	.	.	.	.	.	8a\	-ul-	.	.	.	.
=74	=74	=74	=74	=74	=74	=74	=74	=74	=74	=74	=74	=74	=74	=74	=74
8Bn\L	6\	.	8Bn\L	.	0.r	0.r	.	.	2.ryy	4.bn\	-ta-	.	.	2.ryy	2.ryy
8A\J	.	.	8A\J	.	.	.	.	.	.	.	.	.	.	.	.
2G#X\	6 5	.	2G#X\	.	.	.	.	.	.	.	.	.	.	.	.
.	.	.	.	.	.	.	.	.	.	8f\	.	.	.	.	.
.	.	.	.	.	.	.	.	.	.	(8e\L	-ti-	.	.	.	.
.	.	.	.	.	.	.	.	.	.	8d\J)	.	.	.	.	.
=75	=75	=75	=75	=75	=75	=75	=75	=75	=75	=75	=75	=75	=75	=75	=75
4A\	.	.	4A\	.	.	.	.	.	2.ryy	4c/	-o-	8r	.	2.ryy	2.ryy
!	!	!	!	!	!	!	!	!	!	!	!	!LO:TX:a:rj:t=Solo.	!	!	!
.	.	.	.	.	.	.	.	.	.	.	.	8a\	por-	.	.
4F\	6	.	4F\	.	.	.	.	.	.	4A/	-ne	4d/	.	.	.
4E\	.	.	4E\	.	.	.	.	.	.	4r	.	4dd\	-tan-	.	.
=76	=76	=76	=76	=76	=76	=76	=76	=76	=76	=76	=76	=76	=76	=76	=76
!	!	!	!	!	!	!	!	!	!	!LO:TX:a:t=3.	!	!	!	!	!
8r	7	.	8r	.	.	.	.	.	2.ryy	1.r	.	(4dd\	-tes	2.ryy	2.ryy
8E\L	.	.	8E\L	.	.	.	.	.	.	.	.	.	.	.	.
!LO:TX:t=P:problem:mixed beam	!	!	!LO:TX:t=P:problem:mixed beam	!	!	!	!	!	!	!	!	!	!	!	!
8AA/	#	.	8AA/	.	.	.	.	.	.	.	.	4cc#X\)	.	.	.
8A\	.	.	8A\	.	.	.	.	.	.	.	.	.	.	.	.
8G\	.	.	8G\	.	.	.	.	.	.	.	.	8cc#\L	ma-	.	.
8F\J	6	.	8F\J	.	.	.	.	.	.	.	.	8dd\J	.	.	.
=77	=77	=77	=77	=77	=77	=77	=77	=77	=77	=77	=77	=77	=77	=77	=77
8E\L	6\	.	8E\L	.	.	.	1.r	.	2.ryy	.	.	(4.ee\	.	2.ryy	2.ryy
8D\J	.	.	8D\J	.	.	.	.	.	.	.	.	.	.	.	.
2AA#X/	6 5	.	2AA#X/	.	.	.	.	.	.	.	.	.	.	.	.
.	.	.	.	.	.	.	.	.	.	.	.	8b-\)	.	.	.
.	.	.	.	.	.	.	.	.	.	.	.	16a\	-ni-	.	.
.	.	.	.	.	.	.	.	.	.	.	.	16g/	-pu-	.	.
.	.	.	.	.	.	.	.	.	.	.	.	8g/	-los	.	.
=78	=78	=78	=78	=78	=78	=78	=78	=78	=78	=78	=78	=78	=78	=78	=78
4.D\	.	.	4.D\	.	2.r	2.r	.	.	2.ryy	2.r	.	(8g/L	su-	2.ryy	2.ryy
.	.	.	.	.	.	.	.	.	.	.	.	8e/J)	.	.	.
.	.	.	.	.	.	.	.	.	.	.	.	4f/	-os	.	.
!LO:TX:b:i:t=Tutti.	!	!	!LO:TX:b:i:t=Tutti.	!	!	!	!	!	!	!	!	!	!	!	!
8D|\L	.	.	8D|\L	.	.	.	.	.	.	.	.	.	.	.	.
8F|\	.	.	8F|\	.	.	.	.	.	.	.	.	4r	.	.	.
8A|\J	.	.	8A|\J	.	.	.	.	.	.	.	.	.	.	.	.
=79	=79	=79	=79	=79	=79	=79	=79	=79	=79	=79	=79	=79	=79	=79	=79
8d\L	.	.	8d\L	.	4ff\	2aa\	4.d\	glo-	2.ryy	4.a\	glo-	4.ff\	glo-	2.ryy	2.ryy
8A\	.	.	8A\	.	.	.	.	.	.	.	.	.	.	.	.
8D\	.	.	8D\	.	8r	.	.	.	.	.	.	.	.	.	.
8d\J	.	.	8d\J	.	8ff\	.	8d\	-ri-	.	8a\	-ri-	8ff\	-ri-	.	.
8d\L	6	.	8d\L	.	8ff\L	[4bb-X\	4d\	-a	.	4b-\	-a	4ff\	-a	.	.
16c\L	.	.	16c\L	.	16ee\L	.	.	.	.	.	.	.	.	.	.
16B-\JJ	.	.	16B-\JJ	.	16dd\JJ	.	.	.	.	.	.	.	.	.	.
!LO:LB:g=original	!	!	!	!	!	!	!	!	!	!	!	!	!	!	!
=80	=80	=80	=80	=80	=80	=80	=80	=80	=80	=80	=80	=80	=80	=80	=80
8c\L	7	.	8c\L	.	4ee\	4bb-\]	2c\	Pa-	2.ryy	2b-\	Pa-	2ee\	Pa-	2.ryy	2.ryy
8G\	.	.	8G\	.	.	.	.	.	.	.	.	.	.	.	.
8C\	.	.	8C\	.	8r	4ee\	.	.	.	.	.	.	.	.	.
8c\J	.	.	8c\J	.	8ee\	.	.	.	.	.	.	.	.	.	.
8c\L	6	.	8c\L	.	8ee\L	[4aa\	4c\	-tri	.	4a\	-tri	4ee\	-tri	.	.
16B-\L	.	.	16B-\L	.	16dd\L	.	.	.	.	.	.	.	.	.	.
16A\JJ	.	.	16A\JJ	.	16cc\JJ	.	.	.	.	.	.	.	.	.	.
!	!	!	!	!	!LO:LB:g=original	!	!	!	!	!LO:LB:g=original	!	!	!	!	!
=81	=81	=81	=81	=81	=81	=81	=81	=81	=81	=81	=81	=81	=81	=81	=81
8B-\L	7	.	8B-\L	.	4dd\	4aa\]	4.B-\	glo-	2.ryy	4.a\	glo-	4.dd\	glo-	2.ryy	2.ryy
8F\	.	.	8F\	.	.	.	.	.	.	.	.	.	.	.	.
8BB-\	.	.	8BB-\	.	8r	4dd\	.	.	.	.	.	.	.	.	.
8B-\J	.	.	8B-\J	.	8dd\	.	8B-\	-ri-	.	8a\	-ri-	8dd\	-ri-	.	.
8B-\L	6	.	8B-\L	.	8dd\L	[4gg\	4B-\	-a	.	4g\	-a	4dd\	-a	.	.
16A\L	.	.	16A\L	.	16cc\L	.	.	.	.	.	.	.	.	.	.
16G\JJ	.	.	16G\JJ	.	16b-\JJ	.	.	.	.	.	.	.	.	.	.
!	!	!	!	!	!	!	!LO:LB:g=original	!	!	!	!	!	!	!	!
=82	=82	=82	=82	=82	=82	=82	=82	=82	=82	=82	=82	=82	=82	=82	=82
8A\L	7	.	8A\L	.	4cc\	4gg\]	4.A\	Fi-	2.ryy	4.g\	Fi-	4.cc\	Fi-	2.ryy	2.ryy
8E\	.	.	8E\	.	.	.	.	.	.	.	.	.	.	.	.
8AA\	.	.	8AA\	.	8r	4cc\	.	.	.	.	.	.	.	.	.
8A\J	.	.	8A\J	.	8cc\	.	8A\	-li-	.	8g\	-li-	8cc\	-li-	.	.
8A\L	.	.	8A\L	.	8cc\L	[4ff\	4A\	-o	.	4f\	-o	4cc\	-o	.	.
16G\L	6	.	16G\L	.	16b-\L	.	.	.	.	.	.	.	.	.	.
16F\JJ	.	.	16F\JJ	.	16a\JJ	.	.	.	.	.	.	.	.	.	.
!	!	!	!LO:LB:g=original	!	!	!	!	!	!	!	!	!LO:LB:g=original	!	!	!
=83	=83	=83	=83	=83	=83	=83	=83	=83	=83	=83	=83	=83	=83	=83	=83
8G\L	7	.	8G\L	.	4b-/	4ff\]	2G\	et	2.ryy	2f\	et	2b-\	et	2.ryy	2.ryy
8D\	.	.	8D\	.	.	.	.	.	.	.	.	.	.	.	.
!LO:TX:t=P:problem:mixed beam	!	!	!LO:TX:t=P:problem:mixed beam	!	!	!	!	!	!	!	!	!	!	!	!
8GG/	.	.	8GG/	.	8r	4b-\	.	.	.	.	.	.	.	.	.
8G\J	.	.	8G\J	.	8b-/	.	.	.	.	.	.	.	.	.	.
8G\L	6	.	8G\L	.	8b-/L	[4ee\	4G\	Spi	.	4e\	Spi	4b-\	Spi	.	.
16F\L	.	.	16F\L	.	16a/L	.	.	.	.	.	.	.	.	.	.
16E\JJ	.	.	16E\JJ	.	16g/JJ	.	.	.	.	.	.	.	.	.	.
=84	=84	=84	=84	=84	=84	=84	=84	=84	=84	=84	=84	=84	=84	=84	=84
8F\L	7	.	8F\L	.	4a/	4ee\]	4.F\	ri-	2.ryy	4.e\	ri-	4.a\	ri-	2.ryy	2.ryy
8C\	.	.	8C\	.	.	.	.	.	.	.	.	.	.	.	.
!LO:TX:t=P:problem:mixed beam	!	!	!LO:TX:t=P:problem:mixed beam	!	!	!	!	!	!	!	!	!	!	!	!
8FF/	.	.	8FF/	.	8r	4a/	.	.	.	.	.	.	.	.	.
8F\J	.	.	8F\J	.	8a/	.	8F\	-tu-	.	8d\	-tu-	8a\	-tu-	.	.
8F\L	6	.	8F\L	.	8a/L	4dd\	4F\	-i	.	4d\	-i	4a\	-i	.	.
16E\L	.	.	16E\L	.	16g/L	.	.	.	.	.	.	.	.	.	.
16D\JJ	.	.	16D\JJ	.	16f/JJ	.	.	.	.	.	.	.	.	.	.
!	!	!	!	!	!	!LO:LB:g=original	!	!	!	!	!	!	!	!	!
=85	=85	=85	=85	=85	=85	=85	=85	=85	=85	=85	=85	=85	=85	=85	=85
4AA/	#	.	4AA/	.	8e/	8cc#X\	2.A\	et	2.ryy	2c#X/	et	2ee\	et	2.ryy	2.ryy
.	.	.	.	.	4cc#X\	4ee\	.	.	.	.	.	.	.	.	.
4AA/	.	.	4AA/	.	.	.	.	.	.	.	.	.	.	.	.
.	.	.	.	.	4dd\	4ff\	.	.	.	.	.	.	.	.	.
4AA/	6 4	.	4AA/	.	.	.	.	.	.	4d\	Spi-	4ff\	Spi-	.	.
.	.	.	.	.	16cc#\LL	16ee\LL	.	.	.	.	.	.	.	.	.
.	.	.	.	.	16bn\JJ	16dd\JJ	.	.	.	.	.	.	.	.	.
=86	=86	=86	=86	=86	=86	=86	=86	=86	=86	=86	=86	=86	=86	=86	=86
4AA/	5 #	.	4AA/	.	8cc#X\	8ee\	2.A\	Spi-	2.ryy	4.e\	-ri-	4.cc#X\	-ri-	2.ryy	2.ryy
.	.	.	.	.	4e/	4cc#X\	.	.	.	.	.	.	.	.	.
4AA/	.	.	4AA/	.	.	.	.	.	.	.	.	.	.	.	.
.	.	.	.	.	4f/	4dd\	.	.	.	8f\	-tu-	8dd\	-tu-	.	.
4AA/	6 4	.	4AA/	.	.	.	.	.	.	4f\	-i	4dd\	-i	.	.
.	.	.	.	.	16e/LL	16cc#X\LL	.	.	.	.	.	.	.	.	.
.	.	.	.	.	16d/JJ	16bn\JJ	.	.	.	.	.	.	.	.	.
=87	=87	=87	=87	=87	=87	=87	=87	=87	=87	=87	=87	=87	=87	=87	=87
4AA/	5 #	.	4AA/	.	8e/	8cc#X\	2A\	-ri-	2.ryy	2c#X/	et	2ee\	et	2.ryy	2.ryy
.	.	.	.	.	4cc#X\	4ee\	.	.	.	.	.	.	.	.	.
4AA/	.	.	4AA/	.	.	.	.	.	.	.	.	.	.	.	.
.	.	.	.	.	4dd\	4ff\	.	.	.	.	.	.	.	.	.
4AA/	6 4	.	4AA/	.	.	.	4A\	-tu	.	4d\	Spi-	4ff\	Spi-	.	.
.	.	.	.	.	16cc#X\LL	16ee\LL	.	.	.	.	.	.	.	.	.
.	.	.	.	.	16bn\JJ	16dd\JJ	.	.	.	.	.	.	.	.	.
=88	=88	=88	=88	=88	=88	=88	=88	=88	=88	=88	=88	=88	=88	=88	=88
4AA/	5 #	.	4AA/	.	8cc#X\	8ee\	2.A\	i	2.ryy	4.e\	-ri-	4.cc#X\	-ri-	2.ryy	2.ryy
.	.	.	.	.	4e/	4cc#X\	.	.	.	.	.	.	.	.	.
4AA/	.	.	4AA/	.	.	.	.	.	.	.	.	.	.	.	.
.	.	.	.	.	4f/	4dd\	.	.	.	8f\	-tu-	8dd\	-tu-	.	.
4AA/	6 4	.	4AA/	.	.	.	.	.	.	4f\	-i	4dd\	-i	.	.
.	.	.	.	.	16e/LL	16cc#X\LL	.	.	.	.	.	.	.	.	.
!	!	!	!	!	!	!LO:SIC:s=16bn\JJ:v	!	!	!	!	!	!	!	!	!
.	.	.	.	.	16d/JJ	16b-\JJ	.	.	.	.	.	.	.	.	.
=89	=89	=89	=89	=89	=89	=89	=89	=89	=89	=89	=89	=89	=89	=89	=89
8A\L	5 #3	.	8A\L	.	8e/L	8cc#X\L	8A\L	San-	2.ryy	(8e\L	San-	8cc#X\L	San-	2.ryy	2.ryy
8d\J	.	.	8d\J	.	8f/J	8dd\J	8d\J	.	.	8f\J)	.	8dd\J	.	.	.
4A\	4	.	4A\	.	2et/	4dd\	4A\	.	.	2et\	.	4dd\	.	.	.
4AA/	#	.	4AA/	.	.	4cc#Xt\	4AA/	.	.	.	.	4cc#Xt\	.	.	.
=90	=90	=90	=90	=90	=90	=90	=90	=90	=90	=90	=90	=90	=90	=90	=90
8d|\L	.	.	8d|\L	.	8dd\L	8dd\L	2D\	-cto.	2.ryy	2f\	-cto.	2dd\	-cto.	2.ryy	2.ryy
8A|\	.	.	8A|\	.	8a\J	8a\	.	.	.	.	.	.	.	.	.
!	!	!	!	!	!LO:LB:g=original	!	!	!	!	!	!	!	!	!	!
!	!	!	!	!	!LO:TX:t=P:problem:mixed beam	!LO:TX:t=P:problem:mixed beam	!	!	!	!	!	!	!	!	!
8D|\	.	.	8D|\	.	8d/L	8d/	.	.	.	.	.	.	.	.	.
!LO:TX:b:i:t=Solo.	!	!	!LO:TX:b:t=Solo.	!	!	!	!	!	!	!	!	!	!	!	!
8d|\J	.	.	8d|\J	.	8dd\J	8dd\J	.	.	.	.	.	.	.	.	.
8d\L	.	.	8d\L	.	8dd\L	8dd\L	4r	.	.	4r	.	4r	.	.	.
16c\L	.	.	16c\L	.	16cc\L	16cc\L	.	.	.	.	.	.	.	.	.
16Bn\JJ	.	.	16Bn\JJ	.	16bn\JJ	16bn\JJ	.	.	.	.	.	.	.	.	.
!LO:LB:g=original	!	!	!	!	!	!	!	!	!	!	!	!	!	!	!
=91	=91	=91	=91	=91	=91	=91	=91	=91	=91	=91	=91	=91	=91	=91	=91
!LO:TX:b:i:t=uniſs&colon;	!	!	!	!	!	!	!LO:TX:a:t=18.	!	!	!LO:TX:a:t=4.	!	!LO:TX:a:t=11.	!	!	!
8c|\L	.	.	8c\L	.	8cc\L	8cc\L	0.r	.	2.ryy	0.r	.	0.r	.	2.ryy	2.ryy
!LO:TX:t=P:problem:mixed beam	!	!	!	!	!	!	!	!	!	!	!	!	!	!	!
8G|\	.	.	8G\	.	8g\	8g/	.	.	.	.	.	.	.	.	.
!	!	!	!	!	!	!LO:TX:t=P:problem:mixed beam	!	!	!	!	!	!	!	!	!
8C|/	.	.	8C\	.	8c\	8c/	.	.	.	.	.	.	.	.	.
8c\J	.	.	8c\J	.	8cc\J	8cc\J	.	.	.	.	.	.	.	.	.
8c\L	.	.	8c\L	.	8cc\L	8cc\L	.	.	.	.	.	.	.	.	.
16B-X\L	.	.	16B-X\L	.	16b-X\L	16b-X\L	.	.	.	.	.	.	.	.	.
16A\JJ	.	.	16A\JJ	.	16a\JJ	16a\JJ	.	.	.	.	.	.	.	.	.
=92	=92	=92	=92	=92	=92	=92	=92	=92	=92	=92	=92	=92	=92	=92	=92
8B-|\L	.	.	8B-\L	.	8b-/L	8b-/L	.	.	2.ryy	.	.	.	.	2.ryy	2.ryy
8F|\J	.	.	8F\J	.	8f/	8f/	.	.	.	.	.	.	.	.	.
!LO:TX:t=P:problem:mixed beam	!	!	!LO:TX:t=P:problem:mixed beam	!	!	!	!	!	!	!	!	!	!	!	!
8BB-/L	.	.	8BB-/L	.	8B-/	8B-/	.	.	.	.	.	.	.	.	.
8B-\J	.	.	8B-\J	.	8b-/J	8b-/J	.	.	.	.	.	.	.	.	.
.	.	.	.	.	.	8qqcc/	.	.	.	.	.	.	.	.	.
8B-\L	.	.	8B-\L	.	8b-/L	8b-/L	.	.	.	.	.	.	.	.	.
16A\L	.	.	16A\L	.	16a/L	16a/L	.	.	.	.	.	.	.	.	.
16G\JJ	.	.	16G\JJ	.	16g/JJ	16g/JJ	.	.	.	.	.	.	.	.	.
!	!	!	!	!	!	!LO:LB:g=original	!	!	!	!	!	!	!	!	!
=93	=93	=93	=93	=93	=93	=93	=93	=93	=93	=93	=93	=93	=93	=93	=93
8.A\L	.	.	8.A\L	.	8.a/L	8.a/L	.	.	2.ryy	.	.	.	.	2.ryy	2.ryy
16E\Jk	.	.	16E\Jk	.	16e/Jk	16e/Jk	.	.	.	.	.	.	.	.	.
8.F\L	.	.	8.F\L	.	8.f/L	8.f/L	.	.	.	.	.	.	.	.	.
16C#X\Jk	.	.	16C#X\Jk	.	16c#X/Jk	16c#X/Jk	.	.	.	.	.	.	.	.	.
8.D/L	.	.	8.D/L	.	8.d/L	8.d/L	.	.	.	.	.	.	.	.	.
16AA/Jk	.	.	16AA/Jk	.	16A/Jk	16A/Jk	.	.	.	.	.	.	.	.	.
=94	=94	=94	=94	=94	=94	=94	=94	=94	=94	=94	=94	=94	=94	=94	=94
8.BB-\L	.	.	8.BB-\L	.	8.B-/L	8.B-/L	.	.	2.ryy	.	.	.	.	2.ryy	2.ryy
16G#X\Jk	.	.	16G#X\Jk	.	16g#X/Jk	16g#X/Jk	.	.	.	.	.	.	.	.	.
4A\	.	.	4A\	.	4a/	4a/	.	.	.	.	.	.	.	.	.
4AA/	.	.	4AA/	.	4A/	4A/	.	.	.	.	.	.	.	.	.
!	!	!	!LO:LB:g=original	!	!	!	!	!	!	!LO:LB:g=original	!	!	!	!	!
=95	=95	=95	=95	=95	=95	=95	=95	=95	=95	=95	=95	=95	=95	=95	=95
!	!	!	!	!	!LO:TX:b:t=aſsai.	!LO:TX:b:t=aſsai.	!	!	!	!	!	!	!	!	!
4D/	.	.	4D/	.	4d/	4d/	0.r	.	2.ryy	4r	.	0.r	.	2.ryy	2.ryy
[2D/	.	.	[2D/	.	4.d/	4r	.	.	.	4.d\	Si-	.	.	.	.
.	.	.	.	.	.	4r	.	.	.	.	.	.	.	.	.
.	.	.	.	.	8e/	.	.	.	.	8e\	-cut	.	.	.	.
=96	=96	=96	=96	=96	=96	=96	=96	=96	=96	=96	=96	=96	=96	=96	=96
!	!	!	!	!	!	!LO:TX:a:t=6.	!	!	!	!	!	!	!	!	!
4D/]	.	.	4D/]	.	8f/L	0.r	.	.	2.ryy	8f\	e-	.	.	2.ryy	2.ryy
.	.	.	.	.	8g/J	.	.	.	.	8g\	-rat	.	.	.	.
2C#X/	6	.	2C#X/	.	4.a/	.	.	.	.	4.a\	in	.	.	.	.
.	.	.	.	.	8e/	.	.	.	.	8e\	prin-	.	.	.	.
=97	=97	=97	=97	=97	=97	=97	=97	=97	=97	=97	=97	=97	=97	=97	=97
4D\	.	.	4D/	.	8f/L	.	.	.	2.ryy	8f\	-ci-	.	.	2.ryy	2.ryy
.	.	.	.	.	8d/J	.	.	.	.	8d\	-pi-	.	.	.	.
4r	.	.	4r	.	[2b-/	.	.	.	.	[2b-\	-o-	.	.	.	.
8G\L	.	.	8G\L	.	.	.	.	.	.	.	.	.	.	.	.
8F\J	.	.	8F\J	.	.	.	.	.	.	.	.	.	.	.	.
=98	=98	=98	=98	=98	=98	=98	=98	=98	=98	=98	=98	=98	=98	=98	=98
4E\	6 5	.	4E\	.	8b-/L]	.	.	.	2.ryy	8b-\L]	.	.	.	2.ryy	2.ryy
!	!	!	!	!	!	!	!	!	!	!LO:TX:t=P:problem:mixed beam	!	!	!	!	!
.	.	.	.	.	8c/J	.	.	.	.	8c/J	.	.	.	.	.
4r	.	.	4r	.	[2a/	.	.	.	.	[2a\	.	.	.	.	.
8F\L	.	.	8F\L	.	.	.	.	.	.	.	.	.	.	.	.
8E\J	.	.	8E\J	.	.	.	.	.	.	.	.	.	.	.	.
!LO:LB:g=original	!	!	!	!	!	!	!	!	!	!	!	!	!	!	!
=99	=99	=99	=99	=99	=99	=99	=99	=99	=99	=99	=99	=99	=99	=99	=99
!	!	!	!	!	!	!	!	!	!	!LO:TX:t=P:problem:mixed beam	!	!	!	!	!
4D\	6 5	.	4D/	.	8a/L]	.	0.r	.	2.ryy	8a\L]	.	1.r	.	2.ryy	2.ryy
.	.	.	.	.	8B-/J	.	.	.	.	8B-/J	.	.	.	.	.
4r	.	.	4r	.	[2g/	.	.	.	.	[2g\	.	.	.	.	.
8E\L	.	.	8E\L	.	.	.	.	.	.	.	.	.	.	.	.
8D\J	.	.	8D\J	.	.	.	.	.	.	.	.	.	.	.	.
!	!	!	!	!	!LO:LB:g=original	!	!	!	!	!	!	!	!	!	!
=100	=100	=100	=100	=100	=100	=100	=100	=100	=100	=100	=100	=100	=100	=100	=100
2C#X/	6 5	.	2C#X/	.	8g/L]	1.r	.	.	2.ryy	8g\L]	.	.	.	2.ryy	2.ryy
.	.	.	.	.	8f/	.	.	.	.	8f\	.	.	.	.	.
.	.	.	.	.	8e/	.	.	.	.	8e\	.	.	.	.	.
.	.	.	.	.	8f/	.	.	.	.	8f\J	.	.	.	.	.
4C#/	.	.	4C#/	.	8g/	.	.	.	.	8g\L	et	.	.	.	.
.	.	.	.	.	8a/J	.	.	.	.	8a\J	.	.	.	.	.
=101	=101	=101	=101	=101	=101	=101	=101	=101	=101	=101	=101	=101	=101	=101	=101
8D\	.	.	8D/	.	8d/L	.	.	.	2.ryy	8d\	nunc	2.r	.	2.ryy	2.ryy
!	!	!	!	!	!LO:TX:t=P:problem:mixed beam	!	!	!	!	!	!	!	!	!	!
4A\	x n3	.	4A\	.	8cc\J	.	.	.	.	8cc\	et	.	.	.	.
.	4 n2r	.	.	.	2bnt\	.	.	.	.	2bn\	sem-	.	.	.	.
16G#X\LL	.	.	16G#X\LL	.	.	.	.	.	.	.	.	.	.	.	.
16F#X\JJ	.	.	16F#X\JJ	.	.	.	.	.	.	.	.	.	.	.	.
4G#X\	6	.	4G#X\	.	.	.	.	.	.	.	.	.	.	.	.
=102	=102	=102	=102	=102	=102	=102	=102	=102	=102	=102	=102	=102	=102	=102	=102
4A\	.	.	4A\	.	8a/L	4r	.	.	2.ryy	8a\L	-per	4r	.	2.ryy	2.ryy
.	.	.	.	.	8e/J	.	.	.	.	8e\J	.	.	.	.	.
4r	.	.	4r	.	[2a/	4.a/	.	.	.	4a\	et	4.a\	Si-	.	.
4r	.	.	4r	.	.	.	.	.	.	4a\	in	.	.	.	.
.	.	.	.	.	.	8bn/	.	.	.	.	.	8bn\	-cut	.	.
!	!	!	!	!	!	!	!	!	!	!	!	!LO:LB:g=original	!	!	!
=103	=103	=103	=103	=103	=103	=103	=103	=103	=103	=103	=103	=103	=103	=103	=103
!LO:TX:a:t=6.	!	!	!LO:TX:a:t=6.	!	!	!	!	!	!	!	!	!	!	!	!
0.r	.	.	0.r	.	4a/]	8cc\L	0.r	.	2.ryy	4a\	sae-	8cc\	e-	2.ryy	2.ryy
.	.	.	.	.	.	8dd\J	.	.	.	.	.	8dd\	-rat	.	.
.	.	.	.	.	2g#X/	4.ee\	.	.	.	4.g#X\	.	4.ee\	in	.	.
.	.	.	.	.	.	8bn/	.	.	.	8g#\	-cu-	8bn\	prin-	.	.
!	!	!	!	!	!	!	!	!	!	!LO:LB:g=original	!	!	!	!	!
=104	=104	=104	=104	=104	=104	=104	=104	=104	=104	=104	=104	=104	=104	=104	=104
.	.	.	.	.	4a/	8cc\L	.	.	2.ryy	4a\	-la	8cc\L	-ci-	2.ryy	2.ryy
.	.	.	.	.	.	8a\J	.	.	.	.	.	8a\J	-pi-	.	.
.	.	.	.	.	4r	[2ff\	.	.	.	4r	.	[2ff\	-o-	.	.
.	.	.	.	.	8dd\L	.	.	.	.	8dd\L	et	.	.	.	.
.	.	.	.	.	8cc\J	.	.	.	.	8cc\J	.	.	.	.	.
=105	=105	=105	=105	=105	=105	=105	=105	=105	=105	=105	=105	=105	=105	=105	=105
.	.	.	.	.	4bn\	8ff\L]	.	.	2.ryy	4bn\	in	8ff\L]	.	2.ryy	2.ryy
!	!	!	!	!	!	!LO:TX:t=P:problem:mixed beam	!	!	!	!	!	!LO:TX:t=P:problem:mixed beam	!	!	!
.	.	.	.	.	.	8g/J	.	.	.	.	.	8g/J	.	.	.
.	.	.	.	.	4r	[2ee\	.	.	.	4r	.	[2ee\	.	.	.
.	.	.	.	.	8cc\L	.	.	.	.	8dd\L	et	.	.	.	.
.	.	.	.	.	8b-X\J	.	.	.	.	8cc\J	.	.	.	.	.
=106	=106	=106	=106	=106	=106	=106	=106	=106	=106	=106	=106	=106	=106	=106	=106
.	.	.	.	.	4a/	8ee\L]	.	.	2.ryy	4a\	in	8ee\L]	.	2.ryy	2.ryy
!	!	!	!	!	!	!LO:TX:t=P:problem:mixed beam	!	!	!	!	!	!LO:TX:t=P:problem:mixed beam	!	!	!
.	.	.	.	.	.	8f/J	.	.	.	.	.	8f/J	.	.	.
.	.	.	.	.	4r	[2dd\	.	.	.	4r	.	[2dd\	.	.	.
.	.	.	.	.	8bn/L	.	.	.	.	8bn\L	sae-	.	.	.	.
.	.	.	.	.	8a/J	.	.	.	.	8a\J	.	.	.	.	.
=107	=107	=107	=107	=107	=107	=107	=107	=107	=107	=107	=107	=107	=107	=107	=107
1.r	.	.	1.r	.	2g#X/	8dd\L]	1.r	.	2.ryy	2g#X\	.	8dd\L]	.	2.ryy	2.ryy
.	.	.	.	.	.	8cc\	.	.	.	.	.	8cc\	.	.	.
.	.	.	.	.	.	8bn\	.	.	.	.	.	8bn\	.	.	.
.	.	.	.	.	.	8cc\	.	.	.	.	.	8cc\J	.	.	.
.	.	.	.	.	4g#/	8dd\	.	.	.	4g#\	-cu-	8dd\L	-et	.	.
.	.	.	.	.	.	8ee\J	.	.	.	.	.	8ee\J	.	.	.
!	!	!	!	!	!	!LO:LB:g=original	!	!	!	!	!	!	!	!	!
=108	=108	=108	=108	=108	=108	=108	=108	=108	=108	=108	=108	=108	=108	=108	=108
.	.	.	.	.	8a/	8a\L	.	.	2.ryy	8a\	-la	8a\	nunc	2.ryy	2.ryy
.	.	.	.	.	4dd\	8ff\J	.	.	.	4dd\	et	8ff\	et	.	.
.	.	.	.	.	.	2eet\	.	.	.	.	.	2ee\	sem-	.	.
.	.	.	.	.	16cc#X\LL	.	.	.	.	16cc#X\LL	in	.	.	.	.
.	.	.	.	.	16bn\JJ	.	.	.	.	16bn\JJ	.	.	.	.	.
.	.	.	.	.	4cc#Xt\	.	.	.	.	8.cc#X\	sae-	.	.	.	.
.	.	.	.	.	.	.	.	.	.	16cc#\	-cu-	.	.	.	.
=109	=109	=109	=109	=109	=109	=109	=109	=109	=109	=109	=109	=109	=109	=109	=109
4r	.	.	4r	.	4dd\	8dd\L	4r	.	2.ryy	4dd\	-la	8dd\L	-per	2.ryy	2.ryy
.	.	.	.	.	.	8a\J	.	.	.	.	.	8a\J	.	.	.
!LO:TX:b:t=5tutti&colon;	!	!	!LO:TX:b:i:rj:t=Tutti&colon;	!	!	!	!	!	!	!	!	!	!	!	!
4.D/	.	.	4.D/	.	4.f/	[2dd\	4.D/	Si-	.	4.f\	et	4dd\	et	.	.
.	.	.	.	.	.	.	.	.	.	.	.	4dd\	in	.	.
8E\	.	.	8E\	.	8g/	.	8E\	-cut	.	8g\	in	.	.	.	.
=110	=110	=110	=110	=110	=110	=110	=110	=110	=110	=110	=110	=110	=110	=110	=110
8F\L	6	.	8F\L	.	8a/L	4dd\]	8F\	e-	2.ryy	8a\	sae-	4dd\	sae-	2.ryy	2.ryy
8G\J	.	.	8G\J	.	16g/L	.	8G\	-rat	.	(16g\LL	-cu-	.	.	.	.
.	.	.	.	.	16f/JJ	.	.	.	.	16f\JJ)	.	.	.	.	.
!	!	!	!	!	!	!	!LO:LB:g=original	!	!	!	!	!	!	!	!
4.A\	#	.	4.A\	.	4e/	2cc#X\	4.A\	in	.	4e\	-la	4.cc#X\	.	.	.
.	.	.	.	.	4r	.	.	.	.	4r	.	.	.	.	.
8E\	.	.	8E\	.	.	.	8E\	prin-	.	.	.	8cc#\	-cu-	.	.
!	!	!	!	!	!LO:LB:g=original	!	!	!	!	!LO:LB:g=original	!	!LO:LB:g=original	!	!	!
=111	=111	=111	=111	=111	=111	=111	=111	=111	=111	=111	=111	=111	=111	=111	=111
8F\L	6	.	8F\L	.	8a\L	4dd\	8F\	-ci-	2.ryy	4r	.	8dd\	-la	2.ryy	2.ryy
8D\J	.	.	8D\J	.	16ff\L	.	8D/	-pi-	.	.	.	(16ff\LL	sae-	.	.
.	.	.	.	.	16ee\JJ	.	.	.	.	.	.	16ee\JJ)	.	.	.
[2B-\	6	.	[2B-\	.	8dd\L	4r	[2B-\	-o-	.	4r	.	8dd\L	.	.	.
.	.	.	.	.	8cc\	.	.	.	.	.	.	8cc\	.	.	.
.	.	.	.	.	8b-\	8gg\L	.	.	.	8g\L	et	8b-\	.	.	.
.	.	.	.	.	8a\J	8ff\J	.	.	.	8f\J	.	8a\J	.	.	.
=112	=112	=112	=112	=112	=112	=112	=112	=112	=112	=112	=112	=112	=112	=112	=112
!	!	!	!	!	!	!	!LO:TX:t=P:problem:mixed beam	!	!	!	!	!	!	!	!
8B-\L]	4 2	.	8B-\L]	.	8g\L	4ee\	8B-\L]	.	2.ryy	4e\	in	8g\L	.	2.ryy	2.ryy
!LO:TX:t=P:problem:mixed beam	!	!	!LO:TX:t=P:problem:mixed beam	!	!	!	!	!	!	!	!	!	!	!	!
8C/J	.	.	8C/J	.	16ee\L	.	8C/J	.	.	.	.	16ee\L	.	.	.
.	.	.	.	.	16dd\JJ	.	.	.	.	.	.	16dd\JJ	.	.	.
[2A\	6	.	[2A\	.	8cc\L	4r	[2A\	.	.	4r	.	8cc\L	.	.	.
.	.	.	.	.	8b-\	.	.	.	.	.	.	8b-\	.	.	.
.	.	.	.	.	8a\	8ff\L	.	.	.	8f\L	et	8a\	.	.	.
.	.	.	.	.	8g\J	8ee\J	.	.	.	8e\J	.	8g\J	.	.	.
=113	=113	=113	=113	=113	=113	=113	=113	=113	=113	=113	=113	=113	=113	=113	=113
!	!	!	!	!	!	!	!LO:TX:t=P:problem:mixed beam	!	!	!	!	!	!	!	!
8A\L]	4 2	.	8A\L]	.	8f/L	4dd\	8A\L]	.	2.ryy	4d\	in	8f\L	.	2.ryy	2.ryy
!LO:TX:t=P:problem:mixed beam	!	!	!LO:TX:t=P:problem:mixed beam	!	!LO:TX:t=P:problem:mixed beam	!	!	!	!	!	!	!	!	!	!
8BB-/J	.	.	8BB-/J	.	16dd\L	.	8BB-/J	.	.	.	.	16dd\L	.	.	.
.	.	.	.	.	16cc\JJ	.	.	.	.	.	.	16cc\JJ	.	.	.
[2G\	6	.	[2G\	.	8b-/L	4r	[2G\	.	.	4r	.	8b-\L	.	.	.
.	.	.	.	.	8a/	.	.	.	.	.	.	8a\	.	.	.
.	.	.	.	.	8g/	8ee\L	.	.	.	8e\L	sae-	8g\	.	.	.
.	.	.	.	.	8f/J	8dd\J	.	.	.	8d\J	.	8f\J	.	.	.
!LO:LB:g=original	!	!	!LO:LB:g=original	!	!	!	!	!	!	!	!	!	!	!	!
=114	=114	=114	=114	=114	=114	=114	=114	=114	=114	=114	=114	=114	=114	=114	=114
8G|\L]	4 2	.	8G|\L]	.	8e/L	2cc#X\	8G\L]	.	2.ryy	2c#X/	.	8e/L	.	2.ryy	2.ryy
8F|\	.	.	8F|\	.	8a/	.	8F\	.	.	.	.	8a/	.	.	.
8E|\	.	.	8E|\	.	8g/	.	8E\	.	.	.	.	8g/J	.	.	.
8F|\	.	.	8F|\	.	8f/J	.	8F\J	.	.	.	.	8f/	-cu-	.	.
8G|\	.	.	8G|\	.	4e/	4cc#\	8G\L	-et	.	4c#/	-cu-	4e/	-lo-	.	.
8A|\J	.	.	8A|\J	.	.	.	8A\J	.	.	.	.	.	.	.	.
=115	=115	=115	=115	=115	=115	=115	=115	=115	=115	=115	=115	=115	=115	=115	=115
8D\L	.	.	8D\L	.	8f/L	8dd\	8D/	nunc	2.ryy	8d\	-la	8f/	-rum	2.ryy	2.ryy
!	!	!	!	!	!LO:TX:t=P:problem:mixed beam	!	!	!	!	!	!	!	!	!	!
8c\J	6	.	8c\J	.	8ee\J	4aa\	8c\	et	.	4a\	sae-	8ee\	a-	.	.
2Bn\	7	.	2Bn\	.	2dd\	.	2Bn\	sem-	.	.	.	2dd\	.	.	.
.	.	.	.	.	.	16gg#X\LL	.	.	.	16g#X\LL	-cu-	.	.	.	.
.	6\	.	.	.	.	16ff#X\JJ	.	.	.	16f#X\JJ	.	.	.	.	.
.	.	.	.	.	.	4gg#X\	.	.	.	4g#X\	-lo-	.	.	.	.
=116	=116	=116	=116	=116	=116	=116	=116	=116	=116	=116	=116	=116	=116	=116	=116
4A\	n	.	4A\	.	4cc\	8a/	4A\	-per	2.ryy	8a\	-rum	4cc\	-men	2.ryy	2.ryy
.	.	.	.	.	.	4aa\	.	.	.	4a\	a-	.	.	.	.
4AA/	#	.	4AA/	.	2cc#X\	.	4A\	et	.	.	.	2cc#X\	a-	.	.
.	.	.	.	.	.	4ggn\	.	.	.	4gn\	.	.	.	.	.
4A\	7	.	4A\	.	.	.	4A\	in	.	.	.	.	.	.	.
.	.	.	.	.	.	16ff\LL	.	.	.	16f\LL	.	.	.	.	.
.	.	.	.	.	.	16ee\JJ	.	.	.	16e\JJ	.	.	.	.	.
=117	=117	=117	=117	=117	=117	=117	=117	=117	=117	=117	=117	=117	=117	=117	=117
4d\	n	.	4d\	.	8d/	4ff\	4.d\	sae-	2.ryy	4f\	.	8d/	.	2.ryy	2.ryy
.	.	.	.	.	4dd\	.	.	.	.	.	.	4dd\	.	.	.
4D/	#	.	4D/	.	.	2ff#X\	.	.	.	2f#X\	-men	.	.	.	.
.	.	.	.	.	4ccn\	.	8d\	-cu-	.	.	.	4ccn\	.	.	.
4d\	7	.	4d\	.	.	.	4d\	-la	.	.	.	.	.	.	.
.	.	.	.	.	16b-\LL	.	.	.	.	.	.	16b-\LL	.	.	.
.	.	.	.	.	16a\JJ	.	.	.	.	.	.	16a\JJ	.	.	.
!	!	!	!	!	!	!LO:LB:g=original	!LO:LB:g=original	!	!	!LO:LB:g=original	!	!LO:LB:g=original	!	!	!
=118	=118	=118	=118	=118	=118	=118	=118	=118	=118	=118	=118	=118	=118	=118	=118
4G\	-	.	4G\	.	4b-\	8dd\	2G\	sae-	2.ryy	8d\	a-	4b-X\	.	2.ryy	2.ryy
.	.	.	.	.	.	4gg\	.	.	.	4g\	.	.	.	.	.
4GG/	n	.	4GG/	.	2bn\	.	.	.	.	.	.	2bn\	.	.	.
.	.	.	.	.	.	4ffn\	.	.	.	4fn\	.	.	.	.	.
4G\	7	.	4G\	.	.	.	4G\	-cu-	.	.	.	.	.	.	.
.	.	.	.	.	.	16ee\LL	.	.	.	16e\LL	.	.	.	.	.
.	.	.	.	.	.	16dd\JJ	.	.	.	16d\JJ	.	.	.	.	.
=119	=119	=119	=119	=119	=119	=119	=119	=119	=119	=119	=119	=119	=119	=119	=119
4c\	.	.	4c\	.	8g/	4ee\	2.c\	-lo-	2.ryy	8e\	.	4cc\	-men	2.ryy	2.ryy
.	.	.	.	.	4cc\	.	.	.	.	4cc\	.	.	.	.	.
4C/	.	.	4C/	.	.	[2ee\	.	.	.	.	.	[2ee\	a-	.	.
.	.	.	.	.	4b-X/	.	.	.	.	4b-\	.	.	.	.	.
4c\	7-r	.	4c\	.	.	.	.	.	.	.	.	.	.	.	.
.	.	.	.	.	16a/LL	.	.	.	.	16a\LL	.	.	.	.	.
.	.	.	.	.	16g/JJ	.	.	.	.	16g\JJ	.	.	.	.	.
=120	=120	=120	=120	=120	=120	=120	=120	=120	=120	=120	=120	=120	=120	=120	=120
4F\	.	.	4F\	.	4a/	8ee\L]	4F\	-rum	2.ryy	4a\	-men	8ee\L]	.	2.ryy	2.ryy
.	.	.	.	.	.	8a\J	.	.	.	.	.	8a\J	.	.	.
8r	.	.	8r	.	8r	2dd\	8r	.	.	4r	.	2dd\	.	.	.
8B-\L	5	.	8B-\L	.	8f/L	.	8B-\	a-	.	.	.	.	.	.	.
*	*	*	*	*	*	*	*	*	*	*	*ij	*	*	*	*
8A\	.	.	8A\	.	8f/	.	8A\L	.	.	4f\	a-	.	.	.	.
8G#X\J	7 5	.	8G#X\J	.	8f/J	.	8G#X\J	.	.	.	.	.	.	.	.
!	!	!	!	!	!LO:LB:g=original	!	!	!	!	!	!	!	!	!	!
=121	=121	=121	=121	=121	=121	=121	=121	=121	=121	=121	=121	=121	=121	=121	=121
4A\	#	.	4A\	.	4e/	8cc#X\L	4A\	-men	2.ryy	4e\	-men	8cc#X\L	.	2.ryy	2.ryy
.	.	.	.	.	.	8a\J	.	.	.	.	.	8a\J	.	.	.
8r	.	.	8r	.	8r	2dd\	8r	.	.	4r	.	2dd\	.	.	.
8B-\L	5	.	8B-\L	.	8d/L	.	8B-\	a-	.	.	.	.	.	.	.
8A\	.	.	8A\	.	8f/	.	8A\L	.	.	4f\	a-	.	.	.	.
8G#X\J	7 5	.	8G#X\J	.	8f/J	.	8G#X\J	.	.	.	.	.	.	.	.
=122	=122	=122	=122	=122	=122	=122	=122	=122	=122	=122	=122	=122	=122	=122	=122
4A\	#	.	4A\	.	4e/	8cc#X\L	4A\	.	2.ryy	4e\	-men	4cc#X\	-men	2.ryy	2.ryy
*	*	*	*	*	*	*	*	*	*	*	*Xij	*	*	*	*
.	.	.	.	.	.	8a\J	.	.	.	.	.	.	.	.	.
2AA/	.	.	2AA/	.	4r	[2aa\	2AA/	-men	.	[2a\	a-	4r	.	.	.
.	.	.	.	.	4a/	.	.	.	.	.	.	4a\	a-	.	.
=123	=123	=123	=123	=123	=123	=123	=123	=123	=123	=123	=123	=123	=123	=123	=123
!LO:TX:a:t=Tas. Solo.	!	!	!LO:TX:a:i:t=Tas. Solo.	!	!	!	!	!	!	!	!	!	!	!	!
[2.AA/	.	.	[2.AA/	.	8b-\L	8aa\L]	[2.A\	a-	2.ryy	8a\L]	.	8b-\L	.	2.ryy	2.ryy
!	!	!	!	!	!	!LO:TX:t=P:problem:mixed beam	!	!	!	!	!	!	!	!	!
.	.	.	.	.	16gg\L	8b-/J	.	.	.	8b-\J	.	16gg\L	.	.	.
.	.	.	.	.	16ff\JJ	.	.	.	.	.	.	16ff\JJ	.	.	.
.	.	.	.	.	8ee\L	[2gg\	.	.	.	[2g\	.	8ee\L	.	.	.
.	.	.	.	.	8dd\	.	.	.	.	.	.	8dd\	.	.	.
.	.	.	.	.	8cc\	.	.	.	.	.	.	8cc\	.	.	.
.	.	.	.	.	8b-\J	.	.	.	.	.	.	8b-\J	.	.	.
=124	=124	=124	=124	=124	=124	=124	=124	=124	=124	=124	=124	=124	=124	=124	=124
2.AA/_	.	.	2.AA/_	.	8a\L	8gg\L]	2.A\_	.	2.ryy	8g\L]	.	8a\L	.	2.r	2.ryy
!	!	!	!	!	!	!LO:TX:t=P:problem:mixed beam	!	!	!	!	!	!	!yy	!	!
.	.	.	.	.	16ff\L	8a/J	.	.	.	8a\J	.	16ff\L	.	.	.
.	.	.	.	.	16ee\JJ	.	.	.	.	.	.	16ee\JJ	.	.	.
.	.	.	.	.	8dd\L	[2ff\	.	.	.	[2f\	.	8dd\L	.	.	.
.	.	.	.	.	8cc\	.	.	.	.	.	.	8cc\	.	.	.
.	.	.	.	.	8b-\	.	.	.	.	.	.	8b-\	.	.	.
.	.	.	.	.	8a\J	.	.	.	.	.	.	8a\J	.	.	.
=125	=125	=125	=125	=125	=125	=125	=125	=125	=125	=125	=125	=125	=125	=125	=125
2.AA/_	.	.	2.AA/_	.	8g\L	8ff\L]	2.A\_	.	2.ryy	8f\L]	.	8g\L	.	2.ryy	2.ryy
!	!	!	!	!	!	!LO:TX:t=P:problem:mixed beam	!	!	!	!	!	!	!	!	!
.	.	.	.	.	16ee\L	8g/J	.	.	.	8g\J	.	16ee\L	.	.	.
.	.	.	.	.	16dd\JJ	.	.	.	.	.	.	16dd\JJ	.	.	.
.	.	.	.	.	8cc#X\L	[2ee\	.	.	.	[2e\	.	8cc#X\L	.	.	.
.	.	.	.	.	8b-\	.	.	.	.	.	.	8b-\	.	.	.
.	.	.	.	.	8a\	.	.	.	.	.	.	8a\	.	.	.
.	.	.	.	.	8g\J	.	.	.	.	.	.	8g\J	.	.	.
!	!	!	!	!	!	!	!	!	!	!	!	!LO:LB:g=original	!	!	!
=126	=126	=126	=126	=126	=126	=126	=126	=126	=126	=126	=126	=126	=126	=126	=126
2.AA/_	.	.	2.AA/_	.	8f\L	8ee\L]	2.A\_	.	2.ryy	8e\L]	.	8f\L	.	2.ryy	2.ryy
!	!	!	!	!	!	!LO:TX:t=P:problem:mixed beam	!	!	!	!	!	!	!	!	!
.	.	.	.	.	16dd\L	8f/J	.	.	.	8f\	.	8a\J	.	.	.
.	.	.	.	.	16cc\JJ	.	.	.	.	.	.	.	.	.	.
.	.	.	.	.	8b-/L	[2dd\	.	.	.	8d\	.	[2dd\	.	.	.
.	.	.	.	.	8a/	.	.	.	.	8a\	.	.	.	.	.
.	.	.	.	.	8g/	.	.	.	.	8g\	.	.	.	.	.
.	.	.	.	.	8f/J	.	.	.	.	8f\J	.	.	.	.	.
!LO:PB:g=original	!	!	!	!	!	!	!	!	!	!LO:LB:g=original	!	!	!	!	!
=127	=127	=127	=127	=127	=127	=127	=127	=127	=127	=127	=127	=127	=127	=127	=127
2.AA/]	4	.	2.AA/]	.	2e/	8dd\L]	2.A\]	.	2.ryy	2.et\	.	8dd\L]	.	2.ryy	2.ryy
.	.	.	.	.	.	16cc#X\L	.	.	.	.	.	16cc#X\L	.	.	.
.	#	.	.	.	.	16bn\JJ	.	.	.	.	.	16bn\JJ	.	.	.
.	.	.	.	.	.	2cc#Xt\	.	.	.	.	.	2cc#Xt\	.	.	.
.	.	.	.	.	4e/	.	.	.	.	.	.	.	.	.	.
=128	=128	=128	=128	=128	=128	=128	=128	=128	=128	=128	=128	=128	=128	=128	=128
4DD/	.	.	4DD/	.	4d/	4dd\	2D/	men	2.ryy	2d\	-men	2dd\	-men	2.ryy	2.ryy
4.D\	.	.	4.D\	.	4.d/	4.d/	.	.	.	.	.	.	.	.	.
.	.	.	.	.	.	.	4r	.	.	4r	.	4r	.	.	.
!LO:TX:b:i:t=uniſs&colon;	!	!	!LO:TX:b:i:t=uniſs&colon;	!	!	!	!	!	!	!	!	!	!	!	!
8E\	.	.	8E\	.	8e/	8e/	.	.	.	.	.	.	.	.	.
!	!	!	!	!	!	!	!LO:LB:g=original	!	!	!	!	!	!	!	!
=129	=129	=129	=129	=129	=129	=129	=129	=129	=129	=129	=129	=129	=129	=129	=129
!	!	!	!	!	!	!	!LO:TX:a:t=5.	!	!	!LO:TX:a:t=5.	!	!LO:TX:a:t=5.	!	!	!
8F\L	.	.	8F\L	.	8f/L	8f/L	0.r	.	2.ryy	0.r	.	0.r	.	2.ryy	2.ryy
8G\J	.	.	8G\J	.	8g/J	8g/J	.	.	.	.	.	.	.	.	.
4.A\	.	.	4.A\	.	4.a/	4.a/	.	.	.	.	.	.	.	.	.
8E\	.	.	8E\	.	8e/	8e/	.	.	.	.	.	.	.	.	.
!	!	!	!	!	!	!LO:LB:g=original	!	!	!	!	!	!	!	!	!
=130	=130	=130	=130	=130	=130	=130	=130	=130	=130	=130	=130	=130	=130	=130	=130
8F\L	.	.	8F\L	.	8f/L	8f/L	.	.	2.ryy	.	.	.	.	2.ryy	2.ryy
8D\J	.	.	8D\J	.	8d/J	8d/J	.	.	.	.	.	.	.	.	.
[2B-\	.	.	[2B-\	.	[2b-\	[2b-/	.	.	.	.	.	.	.	.	.
!	!	!	!LO:LB:g=original	!	!LO:LB:g=original	!	!	!	!	!	!	!	!	!	!
=131	=131	=131	=131	=131	=131	=131	=131	=131	=131	=131	=131	=131	=131	=131	=131
!	!	!	!	!	!LO:TX:t=P:problem:mixed beam	!	!	!	!	!	!	!	!	!	!
8B-\L]	.	.	8B-\L]	.	8b-\L]	8b-/L]	.	.	2.ryy	.	.	.	.	2.ryy	2.ryy
!LO:TX:t=P:problem:mixed beam	!	!	!LO:TX:t=P:problem:mixed beam	!	!	!	!	!	!	!	!	!	!	!	!
8C/J	.	.	8C/J	.	8c/J	8c/J	.	.	.	.	.	.	.	.	.
[2A\	.	.	[2A\	.	[2a/	[2a/	.	.	.	.	.	.	.	.	.
=132	=132	=132	=132	=132	=132	=132	=132	=132	=132	=132	=132	=132	=132	=132	=132
8A\L]	.	.	8A\L]	.	8a/L]	8a/L]	.	.	2.ryy	.	.	.	.	2.ryy	2.ryy
!LO:TX:t=P:problem:mixed beam	!	!	!LO:TX:t=P:problem:mixed beam	!	!	!	!	!	!	!	!	!	!	!	!
8BB-/J	.	.	8BB-/J	.	8B-/J	8B-/J	.	.	.	.	.	.	.	.	.
[2G\	.	.	[2G\	.	[2g/	[2g/	.	.	.	.	.	.	.	.	.
=133	=133	=133	=133	=133	=133	=133	=133	=133	=133	=133	=133	=133	=133	=133	=133
8G\L]	.	.	8G\L]	.	8g/L]	8g/L]	2.r	.	2.ryy	2.r	.	2.r	.	2.ryy	2.ryy
8F|\	.	.	8F|\	.	8f|/	8f/	.	.	.	.	.	.	.	.	.
8E|\	.	.	8E|\	.	8e|/	8e/	.	.	.	.	.	.	.	.	.
8F|\	.	.	8F|\	.	8f|/	8f/	.	.	.	.	.	.	.	.	.
8G|\	.	.	8G|\	.	8g|/	8g/	.	.	.	.	.	.	.	.	.
8A|\J	.	.	8A|\J	.	8a|/J	8a/J	.	.	.	.	.	.	.	.	.
=134	=134	=134	=134	=134	=134	=134	=134	=134	=134	=134	=134	=134	=134	=134	=134
4D\	.	.	4D\	.	4d/	4d/	4r	.	2.ryy	4r	.	4r	.	2.ryy	2.ryy
4G\	.	.	4G\	.	4dd\	4bb-\	4G\	a-	.	4b-\	a-	4dd\	a-	.	.
4F#X\	6 5	.	4F#X\	.	4ccn\	[4aa\	4F#X\	-men	.	[4a\	-men	4ccn\	-men	.	.
=135	=135	=135	=135	=135	=135	=135	=135	=135	=135	=135	=135	=135	=135	=135	=135
2G\	3 9	.	2G\	.	2.b-/	4aa\]	2.G\	a-	2.ryy	4a\]	a-	2.b-\	a-	2.ryy	2.ryy
.	.	.	.	.	.	8gg\L	.	.	.	8g\L	.	.	.	.	.
.	.	.	.	.	.	8ff#X\J	.	.	.	8f#X\J	.	.	.	.	.
4GG/	8	.	4GG/	.	.	4gg\	.	.	.	4g\	.	.	.	.	.
=136	=136	=136	=136	=136	=136	=136	=136	=136	=136	=136	=136	=136	=136	=136	=136
2.D\	#	.	2.D\	.	2.a/	2.ff#X\	2.D/	-men	2.ryy	2.f#X\	-men	2.a\	-men	2.ryy	2.ryy
==	==	==	==	==	==	==	==	==	==	==	==	==	==	==	==
*-	*-	*-	*-	*-	*-	*-	*-	*-	*-	*-	*-	*-	*-	*-	*-
!!!system-decoration: [(s1,s2,)][(s3,s4,s5,s6,)][(s7,s8)],[(s9,s10)]
!!!RDF**kern: | = vertical stroke
!!!ENC: Marta Opryszak
!!!END: 2022-04-06
!!!ENC: Leszek Kubiak
!!!END: 2022-04-13
